Link-U-OS/rl_training/trajectory/rosbag_analysis_output/cycle_joint_states_serial.csv
rosbag_timestamp,timestamp,idx01_left_hip_roll_position,idx02_left_hip_yaw_position,idx03_left_hip_pitch_position,idx04_left_tarsus_position,idx05_left_toe_pitch_position,idx06_left_toe_roll_position,idx07_right_hip_roll_position,idx08_right_hip_yaw_position,idx09_right_hip_pitch_position,idx10_right_tarsus_position,idx11_right_toe_pitch_position,idx12_right_toe_roll_position,idx13_left_arm_joint1_position,idx14_left_arm_joint2_position,idx15_left_arm_joint3_position,idx16_left_arm_joint4_position,idx17_left_arm_joint5_position,idx18_left_arm_joint6_position,idx19_left_arm_joint7_position,idx20_right_arm_joint1_position,idx21_right_arm_joint2_position,idx22_right_arm_joint3_position,idx23_right_arm_joint4_position,idx24_right_arm_joint5_position,idx25_right_arm_joint6_position,idx26_right_arm_joint7_position,idx01_left_hip_roll_velocity,idx02_left_hip_yaw_velocity,idx03_left_hip_pitch_velocity,idx04_left_tarsus_velocity,idx05_left_toe_pitch_velocity,idx06_left_toe_roll_velocity,idx07_right_hip_roll_velocity,idx08_right_hip_yaw_velocity,idx09_right_hip_pitch_velocity,idx10_right_tarsus_velocity,idx11_right_toe_pitch_velocity,idx12_right_toe_roll_velocity,idx13_left_arm_joint1_velocity,idx14_left_arm_joint2_velocity,idx15_left_arm_joint3_velocity,idx16_left_arm_joint4_velocity,idx17_left_arm_joint5_velocity,idx18_left_arm_joint6_velocity,idx19_left_arm_joint7_velocity,idx20_right_arm_joint1_velocity,idx21_right_arm_joint2_velocity,idx22_right_arm_joint3_velocity,idx23_right_arm_joint4_velocity,idx24_right_arm_joint5_velocity,idx25_right_arm_joint6_velocity,idx26_right_arm_joint7_velocity,idx01_left_hip_roll_effort,idx02_left_hip_yaw_effort,idx03_left_hip_pitch_effort,idx04_left_tarsus_effort,idx05_left_toe_pitch_effort,idx06_left_toe_roll_effort,idx07_right_hip_roll_effort,idx08_right_hip_yaw_effort,idx09_right_hip_pitch_effort,idx10_right_tarsus_effort,idx11_right_toe_pitch_effort,idx12_right_toe_roll_effort,idx13_left_arm_joint1_effort,idx14_left_arm_joint2_effort,idx15_left_arm_joint3_effort,idx16_left_arm_joint4_effort,idx17_left_arm_joint5_effort,idx18_left_arm_joint6_effort,idx19_left_arm_joint7_effort,idx20_right_arm_joint1_effort,idx21_right_arm_joint2_effort,idx22_right_arm_joint3_effort,idx23_right_arm_joint4_effort,idx24_right_arm_joint5_effort,idx25_right_arm_joint6_effort,idx26_right_arm_joint7_effort
0,0.0,-0.012748261216696,0.0004530985879197,0.0374858005978104,0.2049561120712822,-0.2416591876783975,0.0058697621049642,-0.0018516620563477,0.0025742336143357,-0.338624659396307,0.3573557464411471,-0.1240141334856937,0.0343331342857031,0.3285690986360716,1.3118954021058329,9.684455194084014e-05,-0.3264644560905764,1.570785831822514,-0.0083274521298575,-0.0001509511836422,-0.2323863707053126,-1.3121315973730971,4.24097388981586e-05,0.0717250432181032,1.5708070547097548,0.0085990751016151,-0.003806160672196,-0.1115621737080264,-0.0870506393745399,0.5888870654883321,0.2438605584302123,-0.893645143579336,-0.1945139855060005,-0.1450074447542332,0.0672377205045147,0.6605858431677273,-0.4037189787804256,1.6790686230004224,-0.0543285285714978,-0.6534142503204207,-0.0270190604817258,0.0043470571902514,-1.2605336421565363,0.0032077655826564,0.0054341981318014,0.0053018164085319,-0.0333981160522121,-0.0113315418015287,-1.831309532382094e-05,-0.2367694915112381,-3.5056360880280775e-05,0.0044743256388929,0.0047340960935321,0.2977546063247094,3.480195396929174,-30.353343591178515,-22.927831538381646,10.367264652735228,10.036933058100164,10.279913295471957,7.516456003905422,19.80593646223466,-13.426960396427283,-17.7500021383051,2.733030902196996,-5.636515581316473,-1.895402105833,-0.0968445519408401,-9.85580391326056,0.0104681774857908,1.380015169069657,-1.4497526131925935,0.6657359550369506,2.131597373097065,-0.0424097388981586,-0.9891093429745156,-0.0107547097547922,-2.3546579529623237,0.5970801238573054
1928285,0.002004384994506836,-0.0129601402590525,0.0002878447287967,0.0387020475605611,0.2053819833451133,-0.2434299008561328,0.0055010989084156,-0.0020985817778924,0.0027165432195127,-0.3374384959829029,0.3568880911355674,-0.1202519113510837,0.0340164396221073,0.3273469921096441,1.3118455560677196,0.0001077309613406,-0.328645185376029,1.5707910609082796,-0.0084721174033692,-0.0011851349469646,-0.2324436089017253,-1.312165941494657,4.256155022936339e-05,0.0713139808429867,1.5708071171614395,0.0085943727579224,-0.004280825551692,-0.1040617854917851,-0.0807884476603201,0.6140724897118641,0.2033449833232706,-0.8824436882617663,-0.192564609425232,-0.1157221895790975,0.0704371616870021,0.5725167320204062,-0.181312068170133,1.9434172913262893,-0.1973134849703943,-0.5959567010071422,-0.024015538792448,0.0054004241667197,-1.0323965653697464,0.0023270534252297,0.0120070080669537,0.015072792962043,-0.0271197534626746,-0.0191616081814456,0.0001481964713663,-0.1951095035388635,6.465484518718183e-05,0.0056778666613757,0.0056901100919631,0.2835257166529529,3.488795594601193,-30.95160282316707,-22.63351431332693,10.406566821549228,10.04147253086024,10.128026016019874,7.437326862760046,20.233597904666425,-15.582125288863349,-18.111358256918127,2.9573352993431365,-4.414407334333703,-1.845556067719599,-0.1077309613406819,-7.675076419691607,0.005239091720341,1.1658742212177684,-1.713312643232401,0.7229729168633128,2.165941494656863,-0.0425615502293633,-0.578046590983476,-0.0108171614394905,-2.463446326164817,0.4866843469616733
3894735,0.004004001617431641,-0.0131603516589287,0.0001397190262454,0.0399712931374464,0.2057237003983565,-0.245174178996703,0.0051334220057619,-0.0022847680561444,0.0028406518959311,-0.3363789666029188,0.3567677874380033,-0.1160438933518366,0.0334184611134123,0.3262479908209207,1.3118076120536075,0.0001168587320637,-0.3303702251727496,1.570793876113959,-0.0086848439958079,-0.0025286023182188,-0.2324913807565782,-1.3122150229138692,4.2867531539684976e-05,0.0709831085731834,1.5708073521419494,0.0086028175892737,-0.0047887109341931,-0.0998383257280842,-0.0716258957325319,0.643962801179554,0.1565318955016506,-0.8680848515694151,-0.1934983426362884,-0.0865074776290572,0.0587353216543629,0.5248871793484211,-0.0365209824573958,2.155089011407518,-0.3409266588562376,-0.5337943167515795,-0.0161214195346908,0.0043856380507547,-0.8064674335681935,0.0011528527995022,0.013961383822982,0.0176454850256054,-0.0236073550789362,-0.025995218510684,-4.25767670878518e-05,-0.1560117516544393,9.035438926490453e-05,0.0059473951685043,0.0057735300096132,-8.7146310422774,-5.328037404718842,-33.58774897509086,-22.196018329298347,12.227669599208715,6.811748881720214,10.739442889297488,7.444917493061764,26.71317008789992,-20.447535176017496,-21.388705596147247,3.387230242223117,-11.07477273545851,-1.8076120536074995,-0.1168587320637682,-17.727528258188784,0.002423886041015,0.8919279223531793,-2.059929370976956,2.2043029990631453,2.215022913869234,-0.0428675315396849,-5.296633831603529,-0.0110521419494489,-2.582148794663459,0.3708639549825853
5889919,0.005998134613037109,-0.013309536873578,-2.8687772130279776e-05,0.0413211667685236,0.2059430233459405,-0.246886487589014,0.004760899567322,-0.0023674901117581,0.0028862102380729,-0.3353820413674896,0.3568493845446079,-0.1114824852584661,0.0325347410209071,0.324741949988872,1.3117461830517068,6.34783437145932e-05,-0.3329723275759129,1.570783861473961,-0.0082108336569721,-0.0010842136368813,-0.2323124029785859,-1.3122722752816722,6.740498473064694e-05,0.0702053179271248,1.5708139272479682,0.0086392472090723,-0.0041077215359553,-0.0688268022965591,-0.0861766423950569,0.6846059545369672,0.0945570372723243,-0.8517636521357912,-0.1955555186232906,-0.0290208301973843,0.0124891631383408,0.4895013766818903,0.0671980216455372,2.3181446549444145,-0.4833648285169989,-0.797183676216054,-0.0340727206713368,-0.0250339217261556,-1.3918999751168142,-0.0041641233529809,-0.0147309115830533,-0.0243946569255433,0.1132784051474529,-0.0297805361987491,0.0099530898003874,-0.4340692146859535,0.0027774608756693,-0.0085752331803961,-0.0093836846929894,-8.85029458153062,-5.262492280942417,-34.101582621450774,-21.810445370161545,12.333442326824864,6.8322558565811216,10.4627635193689,7.577733384131403,26.72609985681326,-21.19151956819104,-22.23994359943061,3.914798796047029,-9.56873023425095,-1.7461830517067938,-0.0634783437145932,-15.125427698552926,0.0124385260387498,1.14455482816524,-1.6453756267238018,2.025324001469357,2.2722752816721368,-0.0674049847306469,-4.518842837669041,-0.0176272479682211,-2.43114105376941,0.5343149161011307
8029928,0.008004426956176758,-0.0134297431024197,-0.0001977572169893,0.0427421275181925,0.2060480919785074,-0.248560036443609,0.0043867637024305,-0.0023687133125318,0.0028575794890206,-0.3344676890855054,0.3571662971501274,-0.106680394622325,0.0313700305777955,0.3230758293098142,1.3116755478543756,4.436840283232743e-05,-0.3358163825365286,1.570784454793499,-0.0077798357946833,-0.0001181233254125,-0.2320319241711879,-1.3123389586148573,7.108257002606767e-05,0.0692725936104676,1.5708141174349457,0.0086937740405812,-0.0036612361275528,-0.0581319849135667,-0.0831524517736758,0.7190551436089391,0.038420133671813,-0.8314935163702963,-0.196012101669483,0.0079443381069289,-0.0230051874392384,0.4454999711917152,0.1908241579535038,2.4237455016374234,-0.622984101191526,-0.8342210083586705,-0.0345636706922101,-0.0048402292073155,-1.405310986293407,0.0014819740044576,-0.0042514412945926,-0.0102564663785433,0.1444057956011818,-0.0344912110367823,-0.0002488933890418,-0.4659376089867961,-0.0006335840291681,-0.0029720980647962,-0.0038973056046796,-8.888141858696155,-5.249585824974878,-34.59246990581638,-21.44060214412266,12.36433977207181,6.84176181950733,10.278096693947909,7.687938433240932,26.807237833357465,-22.126623295561075,-22.500997112999396,4.219145435417095,-7.90260706395253,-1.675547854375509,-0.0443684028323274,-12.281375489424931,0.0118452065009933,1.2940624758555204,-1.3486361482457665,1.7448433738009328,2.338958614857347,-0.0710825700260676,-3.586118001802745,-0.0178174349457549,-2.337365183452601,0.6467131758671997
9936735,0.009996414184570312,-0.0135426045007975,-0.0003467218397412,0.0442193204465855,0.2060592726579322,-0.2501900572503571,0.0040133233301366,-0.0023131145804872,0.0027721150274233,-0.3336290895552427,0.3577021580758351,-0.1017404054332747,0.0299292567761491,0.3214729546150831,1.311621766822511,5.130487218193685e-05,-0.338363753319497,1.570789913822757,-0.007676471990926,-0.0004314533440338,-0.2317514187094975,-1.312414314578085,6.452624823519909e-05,0.0684128841788404,1.5708108900735005,0.0087471309966877,-0.0037746401302764,-0.0561876250158605,-0.0711455534227445,0.7446069856805899,-0.0046997366543096,-0.8093934676248671,-0.195431551285322,0.0340387441953994,-0.049171788681664,0.4099653975022944,0.2946685240454875,2.4809317933312256,-0.7606737436427409,-0.786810280703005,-0.0237995434260393,0.0053253398622824,-1.2218090230425462,0.0028825521546393,0.0069905860522551,0.0065143655456734,0.1373727126223212,-0.0387009146643417,-0.0037767685563944,-0.4144899760333825,-0.0017528360686947,0.0031342630722227,0.0022174674009955,-8.88319167639558,-5.2662411190699245,-35.04121954392488,-21.141222801313276,12.452597622942452,6.8704019070652125,10.140396828339762,7.777548616975864,26.85272536944146,-22.971423261860675,-23.182735301823985,4.780666844279331,-6.299731542127347,-1.6217668225110629,-0.0513048721819368,-9.73400561995294,0.00638617724303,1.2040428390683888,-1.4033462034705555,1.464337307779033,2.414314578085396,-0.064526248235199,-2.7264083977976696,-0.0145900735003579,-2.372657411279345,0.6296420594208026
11905350,0.011986255645751953,-0.0136561352938638,-0.0004655127092964,0.0457404483400911,0.2059939967090338,-0.251774039305213,0.0036416197090185,-0.0022121759762225,0.0026399348145994,-0.3328608381105614,0.3584400325898019,-0.0967598307100085,0.0282246809050218,0.3200070096387277,1.3115963300446534,6.616602151341071e-05,-0.3404626124050015,1.5707944844186492,-0.0077903793665353,-0.0015102316478797,-0.2315021461239364,-1.312497204838998,5.697736107817058e-05,0.0676915997110297,1.5708077107795893,0.0088057437888447,-0.0042304611363749,-0.0571001069868102,-0.0553058049854445,0.7658747972783571,-0.0419555014669419,-0.786099298316081,-0.1944891810360871,0.0556393924298088,-0.0713605374573057,0.3756803904852355,0.39316479203904,2.48952452152212,-0.8909148498510633,-0.7142772437021645,-0.0088699678107513,0.0077457040710215,-0.9913080376759223,0.0019933932132632,0.0125084990438126,0.0150249164193847,0.1200979452332891,-0.0422916973577476,-0.0036082972801334,-0.3422625292044767,-0.0014758700682538,0.0064035784113084,0.0053682526243294,-8.863870263442207,-5.298317551339647,-35.4730519922126,-20.86607173886718,12.502704976593238,6.886368170367434,10.019271568613302,7.861298290969898,26.904785122607542,-23.823229530888224,-23.54802880332741,5.2203917683392245,-4.833784916543038,-1.596330044653314,-0.0661660215134107,-7.635148355963793,0.0018155813506837,0.9743503239674024,-1.6719507067054489,1.2150635171786632,2.497204838997959,-0.0569773610781705,-2.0051235862647303,-0.0114107795893687,-2.48790397574048,0.5344103147739052
13893054,0.013997554779052734,-0.0137754397533914,-0.0005497702448957,0.0472886519041471,0.2058803363836322,-0.2533109021512357,0.0032703694450831,-0.0020715448652035,0.0024654230890778,-0.3321201921334671,0.3592883134481645,-0.0918123212428076,0.0262686509082637,0.3186938902784506,1.311605032361579,8.220095944831429e-05,-0.3421096329368299,1.570796825831114,-0.0079735573686357,-0.0028016875193659,-0.2312916110795854,-1.3125855782664346,5.085820933329264e-05,0.0671146388219071,1.5708054677211096,0.0088744449104289,-0.0048077046307331,-0.0611862756801388,-0.0378968339076658,0.7745127880068446,-0.0573759513685338,-0.7625312921558247,-0.1951313425667451,0.0754815408046342,-0.0937745796199273,0.3788069259272536,0.4142001172924293,2.4694764716740853,-1.0162562216216744,-0.6369872262052534,0.0094692337519665,0.0082830709692257,-0.768801316548827,0.0009398349411241,0.0133209767340114,0.0165345382870812,0.099789036636329,-0.0445025138140515,-0.0030210089129608,-0.2710483076691394,-0.0010343224249978,0.007370696687644,0.006179654115484,-16.46536734774717,-12.989326495294348,-37.3463081328634,-17.904077366601275,15.267985947750478,3.973569780367717,10.342543582020795,6.085623688530214,31.61868265661421,-27.71604423369803,-25.357972951470988,5.6283696532549605,-13.688938407485978,-1.6050323615791058,-0.0822009594483142,-18.34323855657709,-0.000525831114146,0.7073710046206396,-2.001506313075273,5.368204233982226,2.585578266434595,-0.0508582093332926,-3.980767154886536,-0.0091677211096339,-2.6329058962365317,0.4128677034462538
15931521,0.01600193977355957,-0.0138467673041763,-0.0006468469057722,0.0488597681888162,0.2057275798602255,-0.254802997585061,0.0028881192465195,-0.0018295157378109,0.0021916918705033,-0.3313478408637676,0.3600877736797676,-0.0869314974243528,0.0240741207637818,0.3169324822750272,1.3115957205652795,2.8047659421095505e-05,-0.3447649888392604,1.5707852717645092,-0.0073664236945228,-0.0010579896243966,-0.2309059527924873,-1.3126715633045103,7.111234671376473e-05,0.0662972707334258,1.57080981941035,0.0089677637002757,-0.0047148489714812,-0.0302562173949763,-0.0500036454635505,0.7882795384979713,-0.0811213918693666,-0.7404254883564172,-0.2011296455670753,0.1326852543609386,-0.1480410266089721,0.3892557941343562,0.3947253890426481,2.428649831003738,-1.1320472686290155,-0.9302624786652658,-0.0077772552469803,-0.025431480398153,-1.4326366655737277,-0.0048524988102914,-0.0171676086141138,-0.0292307933690873,0.212700346382977,-0.0427086980311118,0.0085397505777457,-0.431365241105253,0.0020289033446704,-0.0005520690039031,-0.0023397388686077,-16.61074505757093,-12.940386094712755,-37.74313189274397,-17.70425284794596,15.310460273074352,3.988826132275824,10.025061227678234,6.284008087912028,31.4015191934317,-27.755602386902243,-25.58706324117901,6.033926227354403,-11.92752882077184,-1.5957205652794073,-0.0280476594210955,-15.687884525269396,0.0110282354908122,1.0063855136207085,-1.495089814053315,4.98254477410822,2.671563304510528,-0.0711123467137647,-3.1633987386751983,-0.0135194103502271,-2.6273987583838805,0.4502434610370801
17938891,0.017999887466430664,-0.0138952797812747,-0.0007433267814719,0.0504424902129504,0.2055555527509083,-0.2562510365825317,0.0025071954209831,-0.001519572348651,0.001852393144724,-0.3305469677806905,0.3608470726685123,-0.0821681458106292,0.0216581042740049,0.3149886511899925,1.311581238074858,1.1828871262034774e-05,-0.3477237410428511,1.5707848354179177,-0.0068426381929648,0.0001463856410748,-0.2304337671407345,-1.3127552289528166,7.529773733157937e-05,0.065442254072625,1.5708105715021836,0.0090847616285401,-0.0048601286790372,-0.0235811562509818,-0.0462025596057861,0.7924153331675939,-0.0883046058737162,-0.7184210479403588,-0.1993150986063703,0.1609527298667604,-0.1753452471806836,0.4041963212188118,0.3748601423785949,2.364168904210617,-1.2398875461574468,-0.973575731444099,-0.0057310286628713,-0.0029627972954815,-1.465284786221979,0.0007805179565154,-0.0059616088704488,-0.0133122326769783,0.2398650116953313,-0.0415042963138691,0.0004069405111188,-0.4185863229287137,-8.837799321623251e-05,0.0039435556764418,0.0019109047813415,-16.63412846859862,-12.93302903172942,-37.91335614574899,-17.667626116170116,15.351919802883096,4.013772372107181,9.92416541730921,6.353059396099039,31.277658034716158,-27.768173134366997,-25.79463566459419,6.442886704518511,-9.98369615877317,-1.5812380748579926,-0.0118288712620347,-12.729134185324426,0.0114645820824534,1.1950763768464678,-1.1274716070694044,4.510357954265999,2.755228952816651,-0.0752977373315793,-2.3083817514539646,-0.0142715021836465,-2.680914037076094,0.4366821578673099
19915259,0.02000713348388672,-0.0139462748649585,-0.0008175893921509,0.0520302169514789,0.2053714387730253,-0.2576554063416174,0.0021300912952329,-0.001172415992877,0.0014788617821199,-0.3297139685366816,0.3615666570126911,-0.0775644282807994,0.0190454526273289,0.3131100254176983,1.3115890374136718,2.6905943198465932e-05,-0.3503873435407142,1.5707907038414348,-0.006731890549969,-5.9588992286520095e-05,-0.2299564939208851,-1.312835826013312,7.14776230933013e-05,0.0647007995550705,1.5708093905307765,0.0092053443091295,-0.0053805395205244,-0.0267180570270033,-0.0337256922130251,0.7933658518889309,-0.0917690315148606,-0.6969486693028426,-0.1964959850460523,0.1768597192261538,-0.1895518599182258,0.4204085116840063,0.3549931066075001,2.279524902841776,-1.3340810353437738,-0.923543353174932,0.0077934785714605,0.0101747920552855,-1.278144032499028,0.0033689066218818,0.0059755396285449,0.0057311712125583,0.236781501289591,-0.0398386272212513,-0.0023672167510249,-0.3527176985606683,-0.0006472209072257,0.0078764649099705,0.0058106127083074,-16.61549987650912,-12.967023431235102,-38.40773952562228,-17.551368331243477,15.392118418873237,4.031925555574799,9.718765936510756,6.501208499329634,30.8878284227166,-27.80283074309937,-25.956852936690023,6.845962487974731,-8.105068815816594,-1.5890374136718035,-0.0269059431984659,-10.065533543659852,0.0055961585651402,1.1285901946791508,-1.1561260957060686,4.033083570994791,2.835826013312044,-0.0714776230933013,-1.5669269087834437,-0.0130905307762532,-2.8216493777188165,0.3371232350449127
21951155,0.02200794219970703,-0.0140103890657941,-0.0008618164979833,0.0536099672503547,0.2051955315879657,-0.2590199155933456,0.0017623408214863,-0.0008049077409411,0.0010902645298151,-0.3288489229647109,0.36224544399437,-0.0731548355714709,0.0162674592194842,0.311381198110119,1.3116319550814044,5.419541067669112e-05,-0.3525819870891071,1.5707967225042188,-0.0068977550295457,-0.0011214979952242,-0.2295015319658847,-1.3129122646844278,6.647529181440627e-05,0.0641086583476261,1.57080848123468,0.0093283809378714,-0.0060842975535332,-0.034029999033298,-0.0180674750666992,0.7884250516027798,-0.0862875665273744,-0.6775383199219664,-0.1911609392701475,0.1856620925106663,-0.1953698653730299,0.4366324168721507,0.3339317849753824,2.1787464004589,-1.412030262786048,-0.8436694890595322,0.0262076322002142,0.0142840603367301,-1.0360942779965037,0.0027443696733779,0.0119718012895076,0.0155491423142285,0.224043846425601,-0.0376415001905374,-0.0024249790624958,-0.2773216229618097,-0.0003614968007082,0.0094216139240702,0.0073063446645532,-16.594758206397987,-12.986320863577442,-38.55376094738136,-17.546697906044745,15.411031516070429,4.047669675278458,9.670193734789716,6.537354640671389,30.754117931209397,-27.80773351704616,-26.07912178684461,7.239109575079059,-6.37623994385126,-1.631955081404385,-0.0541954106766911,-7.870891844048288,-0.0004225042187044,0.911669678372356,-1.4297067475718055,3.578120457221644,2.9122646844277824,-0.0664752918144062,-0.9747853775221672,-0.0121812346799288,-3.005132016999112,0.1956537580505146
23894951,0.023996829986572266,-0.014081234510184,-0.0008853012270516,0.0551353227966162,0.2051102092676631,-0.2603508823436518,0.0014018497745548,-0.0004213690859141,0.0006928337432636,-0.327918730462402,0.3628149577149016,-0.0689503836258717,0.0133538928400767,0.3098234505991756,1.3117146059944869,8.475333700270532e-05,-0.3542987846574193,1.5708003714366257,-0.007168204128554,-0.002444419330579,-0.2290767767639784,-1.3129846191803534,6.189718690860174e-05,0.0636591368103769,1.570808158156547,0.0094522108907322,-0.0067985531671834,-0.0325660333768913,-0.013933388527181,0.7397900262949093,-0.0022798455533019,-0.6623338400056793,-0.1896698742039266,0.1947164535918527,-0.200979076474884,0.4843291557476449,0.2485548734783556,2.0804075451427866,-1.477028552821107,-0.7562540715750715,0.0467844440809875,0.0158800077901291,-0.8003009667810557,0.0015712363208783,0.0129619687054554,0.0178102848514275,0.2078566583174769,-0.035952765212193,-0.0024848621391447,-0.2078475655056992,-0.0001600112726187,0.0091316575332639,0.0070551857531331,-21.564016601097528,-18.361428013589908,-38.63516300221368,-9.54346173529132,19.473371754431803,1.64002373735092,10.210279850771428,4.888677136560421,33.59959848072921,-31.476936581602903,-26.94858957312345,7.451825617134665,-16.559199775115417,-1.714605994486874,-0.0847533370027053,-19.50535041475115,-0.0040714366257361,0.6523306809361298,-1.781433478102832,9.546457151313575,2.98461918035332,-0.0618971869086017,0.984592954734154,-0.0118581565470776,-3.1911713150941727,0.0518979124714221
25889563,0.02599787712097168,-0.0140654657636335,-0.0009823136693857,0.0564994195093749,0.2053079633427639,-0.2616680791652837,0.0010422671294776,5.1382873546712224e-05,0.0002250415034529,-0.3268726797957414,0.3631214797146794,-0.0649192483077725,0.0103273905015236,0.307776434437697,1.3117756579788056,3.717994962615523e-05,-0.3571327738681796,1.570788397543946,-0.0065561599217762,-0.0005144408371883,-0.2285484389643664,-1.3130494042719452,7.606541498889696e-05,0.0632848285049869,1.5708115003851395,0.009575057181787,-0.0076433808684628,0.01764590683635,-0.0571657845273025,0.6642957163424251,0.1303511912587795,-0.6574600742466414,-0.1873640936260237,0.2469199229150052,-0.2419816537833351,0.5362131961962339,0.1231313763187301,1.9941622186496133,-1.529482510134504,-1.078574030724812,0.0264476831581,-0.0225049452073279,-1.5338023751852363,-0.0051037850336517,-0.0193445525219792,-0.0315781764757498,0.2786442060751234,-0.0313136186737205,0.0066331554009142,-0.1769085932445238,0.0018676609309789,0.0113547611021039,0.0091378989757518,-21.74155023955704,-18.263550655769254,-38.40849406545336,-10.610906313853537,19.512382037919856,1.6496981654231877,9.970559371499604,5.032236420537783,33.0169204120689,-30.608987025769054,-27.018277216923813,7.734273142046792,-14.512182121466765,-1.7756579788056115,-0.0371799496261552,-16.671363105959188,0.0079024560538982,0.99352640970629,-1.231159990958374,9.0181176778745,3.04940427194515,-0.0760654149888969,1.3589017530056324,-0.0152003851394511,-3.4071850223701574,-0.1221696425673986
27954565,0.027998924255371094,-0.0140041095267336,-0.0011219807293853,0.057740308518379,0.2057249402768956,-0.2629779399223215,0.000697039640654,0.0005811899822407,-0.000287240214492,-0.3257299746581613,0.3632207389131361,-0.0610591093485278,0.0072141551661268,0.305521299615812,1.3118246468942631,2.9110072798066763e-05,-0.3603123543507274,1.5707884708383346,-0.0060725169322731,0.0007711182537268,-0.2279351353337931,-1.31310463913856,8.294398833536718e-05,0.0630080635579829,1.570814430344705,0.0097207067409268,-0.0085826658419549,0.0328489234545764,-0.0722367245948953,0.6081463589949977,0.2302552980283921,-0.6541785956382262,-0.1785784706395434,0.2690678001090488,-0.2595618119220699,0.5812803284742358,0.0296673370351747,1.9083160289800287,-1.5679997793945364,-1.1306810609415208,0.0253205884748744,0.0018044053337322,-1.5757101352972778,0.0014100621740865,-0.0068837640766215,-0.0131528694722854,0.3141609932785527,-0.0262641801912047,0.0025064316004082,-0.125016315320168,0.0012961445578166,0.0121631793464469,0.0096122587177105,-21.925450936944937,-18.14079218561657,-38.239603185995385,-11.871285400744329,19.58505247143265,1.6730827627052285,9.653406039574548,5.231544336546556,32.25247959725383,-29.58184994725295,-27.11801659153872,8.142824113801206,-12.257045813374418,-1.8246468942631964,-0.0291100727980667,-13.491784517779536,0.0078291616653132,1.2078213132198543,-0.8516522026532385,8.404813491589096,3.1046391385598326,-0.0829439883353671,1.6356668636466694,-0.018130344705014,-3.648894327046868,-0.3141471004419285
29932769,0.03000617027282715,-0.0139389601881941,-0.0012693204445168,0.0588928101169204,0.2062981318787848,-0.2642842706998696,0.0003753843138681,0.001131812346816,-0.0008159721450554,-0.32451175143577,0.3631746876760706,-0.0573707769248806,0.0040472284775991,0.3033283345996325,1.3118916530542857,5.391246527795235e-05,-0.3631773151866163,1.5707940520482588,-0.0060560724729993,0.0004778069221198,-0.2272755419753176,-1.3131485876444524,8.443251800015417e-05,0.0628363959067894,1.5708162203368896,0.0098743963678836,-0.0094761340306008,0.0316415790147258,-0.073411209725824,0.5664013444555216,0.3039187134336347,-0.653036979867477,-0.1654437837780029,0.2766044942380739,-0.2652791599428532,0.6179940535942022,-0.0394254059499339,1.8230130530620483,-1.590567776985488,-1.0803396311613405,0.0369148904862537,0.0149349576072758,-1.3744753798234777,0.0029795633122189,0.0064978067390297,0.0080294891883359,0.3341414897167878,-0.0205135782707954,0.0002995291555183,-0.0731600400586605,0.0007826789852047,0.0113433572278586,0.0087133201649372,-21.92788362875582,-18.11811456725668,-38.219633418466806,-12.513031460996643,19.64453124576062,1.6811950443364545,9.54414166153464,5.317431531582154,31.788552602055773,-29.088069474202776,-27.18794608769181,8.415847553445214,-10.064079316926495,-1.891653054285371,-0.0539124652779523,-10.6268255686889,0.0022479517410829,1.137272075273157,-0.9165838967289008,7.745219025021527,3.148587644452391,-0.0844325180001541,1.8073348411331551,-0.0199203368895268,-3.8813940773097415,-0.4941700147278973
31937853,0.03200864791870117,-0.0138876955230471,-0.0014086733104712,0.0599748366008474,0.206993667904229,-0.2655919911049924,8.376602932453438e-05,0.0016864560989377,-0.0013464339450466,-0.3232276741865646,0.3630101321377792,-0.0538479633726058,0.0008565496111479,0.3012916527551789,1.3119903892728724,9.043024447926184e-05,-0.365532546386192,1.570798731890966,-0.0063519971306977,-0.0007707761164961,-0.2265883461013946,-1.313180626571725,8.33743534740763e-05,0.0627592735972669,1.5708172447818525,0.0100244433209173,-0.0102412636924878,0.0232391636332996,-0.0680551207862795,0.5331914280519295,0.3610980243514708,-0.654328628420319,-0.1493674259706828,0.2771474429578691,-0.2648460833820133,0.6496189107527401,-0.0955834725394991,1.74122970435245,-1.5983024541205144,-0.9964337086325498,0.0537444575839323,0.0188762375089496,-1.1108067241673536,0.0020294639228035,0.0131259949083457,0.0190465502309795,0.3462637533224126,-0.014510081744455,-0.0007491355969517,-0.0276574787819144,0.0004268705049433,0.0096562374499022,0.0071298271782134,-21.8925359583178,-18.11606696150124,-38.23677921683066,-13.06630456301921,19.706261603947198,1.680866166167254,9.46932323015984,5.385092335898484,31.34198800926346,-28.658760789651705,-27.24721164384477,8.665294417449271,-8.02739599811963,-1.990389272872335,-0.0904302444792618,-8.27159624837168,-0.0024318909659086,0.8994545615268932,-1.2554896067833767,7.058022047434349,3.1806265717250426,-0.0833743534740762,1.884457475644844,-0.0209447818524495,-4.083639813569851,-0.6451826815770183
33898221,0.03400397300720215,-0.0138482372644785,-0.0015422268844005,0.0608937162696001,0.2079739202716997,-0.2669131535849345,-0.0001830191770008,0.0022417909675427,-0.0018773726278464,-0.3218693269483905,0.3627043187436845,-0.0504708301546427,-0.0023315447412122,0.2994418474301409,1.3121268976320688,0.0001311681950384,-0.3673656033009539,1.5708012213796083,-0.0067716208705719,-0.002304298239385,-0.2258873163714158,-1.3132024760370928,7.95432844583699e-05,0.0627641965487336,1.570817242903517,0.0101609889373757,-0.0108438572859127,0.0217521726689914,-0.069521496396786,0.3996116624255763,0.5960651821582019,-0.6653534329282061,-0.1408532594574786,0.2794631387239528,-0.2677001284079137,0.6948513627370396,-0.1862953189710362,1.675003308645059,-1.5941088970379176,-0.8983542035630561,0.073736679568741,0.0214246979916791,-0.8529674770292095,0.0011166220804158,0.0140634405232351,0.0215172562175563,0.3506163478446846,-0.0103658767349019,-0.0027364858071017,0.0127454066645848,-0.0002566914087171,0.0075792040029716,0.0053440574724125,-23.87712756883992,-20.244043645384696,-37.46165910672288,0.657627490380345,24.33676393781461,-0.3330464901797452,9.413292188664718,2.6377775694736707,32.62709031965444,-31.272514146559228,-27.86263175797176,8.731040589191789,-19.313950700991256,-2.1268976320689035,-0.1311681950384309,-16.062279581053247,-0.0049213796082767,0.6169567646452103,-1.6813330990206754,14.62193174927964,3.202476037092765,-0.0795432844583699,-1.4960965896977283,-0.020942903516925,-4.246055648983782,-0.7609752425647293
35940236,0.03600430488586426,-0.0137173820553653,-0.0017659972725518,0.0614344266336888,0.2096358125670787,-0.268283660754909,-0.0004443613527717,0.0028873932571592,-0.0024889415219954,-0.3204215301683217,0.3621801919088266,-0.0471967589189334,-0.0054917884408022,0.2972025520723662,1.312235761890521,9.928705958128773e-05,-0.369974083102847,1.570790549767712,-0.0064627206237757,-0.0013515026356721,-0.2248535036324807,-1.3132139488680417,0.000109783545595,0.0622733041694938,1.570823970601669,0.010296774636538,-0.0103459706713796,0.0754374532417772,-0.1226519305770622,0.231183121192697,0.9016648281184304,-0.6921550408285527,-0.1364911640716438,0.3332138904904166,-0.3153294232165757,0.7336483077773868,-0.2856679603126912,1.625328230982667,-1.5766714504689865,-1.1652694538004345,0.0496981594034989,-0.0155137000488351,-1.3838660295303669,-0.0046782980271322,-0.0098016496069275,-0.0168412479326194,0.5559307149064562,-0.0043678671769043,0.0126376464445665,-0.2959166573562098,0.0029596240371873,-0.0051836829731542,-0.007611462559437,-24.16256514888856,-20.055562192384198,-36.55922993214336,-1.8471863363246517,24.404143304290344,-0.3421807187202592,9.060610132182251,2.860169410139015,32.104749293398605,-30.4615977534989,-27.91639433152725,8.875061696468034,-17.074653946137573,-2.235761890520962,-0.0992870595812877,-13.453801691426122,0.0057502322879372,0.7842465661797938,-1.4085212787150905,13.588117956702916,3.213948868041598,-0.1097835455950817,-1.005203904896149,-0.0276706016688876,-4.154290942074711,-0.6228374647652851
37901549,0.03800249099731445,-0.0135400083955207,-0.002051030429456,0.0617044576640217,0.2117841881237856,-0.2697121947188322,-0.0006834839869789,0.003586226938982,-0.0031521681084819,-0.3188976050829918,0.361486662486536,-0.0440056286869336,-0.0086128917971896,0.2947897685987763,1.3123274035109522,9.866785468803738e-05,-0.3727546292929854,1.570789540002295,-0.0061913227324191,-0.0009151047131291,-0.2236199662004559,-1.3132137478171606,0.0001151201786964,0.0616081069408226,1.57082436790594,0.0104303791573412,-0.0101964927742383,0.0910683380137125,-0.1476095709144864,0.1063174485430519,1.1255148522477416,-0.7218146841710049,-0.1229694458582766,0.3530532078838519,-0.3357514244502555,0.7708639339534537,-0.3649991082977626,1.5864014660578414,-1.5555848696335572,-1.2091635994752872,0.045969598648108,0.0046435016669021,-1.3667528047332542,0.000651537280042,0.0002381262229765,-0.0029400673114588,0.6305311259940514,0.0016583773764111,-3.183487680752991e-05,-0.332254918107715,-0.0005834183846002,0.0012630703418588,-0.0009175360052357,-24.22812418367203,-19.99338215996735,-36.187155412084,-2.9205868256904663,24.5401432506824,-0.3366143387229101,8.952825753327229,2.9391783976627885,31.83766000152932,-30.08928460865963,-28.02922296858033,9.05492492825303,-14.661869081051464,-2.3274035109523084,-0.0986678546880373,-10.673257405912238,0.0067599977046484,0.8386788006520527,-1.2613789105080444,12.354579475246766,3.213747817160538,-0.1151201786964127,-0.3400063718842574,-0.0280679059399062,-4.142585566198616,-0.5655070978070389
39935698,0.04001569747924805,-0.0133583626516028,-0.0023660920783846,0.0617637678552861,0.2143086601102511,-0.2712042072469546,-0.0008828971336385,0.0043007012221452,-0.0038372912578051,-0.3173036772227157,0.3606572409461698,-0.0408762873924249,-0.0116837095704879,0.2924282130928826,1.3124319707228878,0.0001269988836056,-0.3751925980802355,1.57079358185465,-0.0062807136855762,-0.0016515817519776,-0.2223227293928311,-1.3132008401168822,0.0001065237842961,0.0610229001460276,1.5708210810623433,0.0105365573288026,-0.010622590530228,0.0896294037762873,-0.1598597097491355,0.0102059881442961,1.296715624674719,-0.7539045413059018,-0.100796195775545,0.3576550702988882,-0.3441556365056559,0.8040917956574354,-0.4271538327746551,1.5576470271701304,-1.528723837728924,-1.1676668255793716,0.0550067694539666,0.0163719835231371,-1.1622401417625514,0.0021622496555801,0.0097998125320656,0.0127488893446649,0.6520832971319894,0.0081343611299493,-0.005133534564444,-0.2756393502991965,-0.0017967161882499,0.0070550639556856,0.0053693986740733,-24.280197424050236,-19.86592653010971,-35.29923537817241,-5.640568371716595,24.65265749082122,-0.3373976970918493,8.75467419769171,3.121933515661523,31.05851777699711,-29.13614743448067,-28.124946240441663,9.158605470082383,-12.300311498332237,-2.431970722887854,-0.1269988836056395,-8.235291461337908,0.0027181453501725,0.6838568249038134,-1.44673748747878,11.057341101332725,3.2008401168823184,-0.1065237842961875,0.2452008771430911,-0.0247810623434361,-4.259072449056125,-0.6457396686102128
42039565,0.042038679122924805,-0.0131461142925139,-0.002718079232174,0.0616810119048335,0.2170423915549558,-0.272744109176241,-0.0010141416306464,0.0049570194837006,-0.0045255714298693,-0.3161826147652369,0.3607007551914895,-0.0379868852649156,-0.0144329121752883,0.2901472505702038,1.3125465758543284,0.0001327503060645,-0.3771702777200977,1.5707951705826075,-0.0065546449635741,-0.0030530686742492,-0.2209219502613082,-1.3131740539100318,0.0001097630524713,0.0605498703544636,1.5708212576948943,0.0106945813491537,-0.0113506658131082,0.1230319580299155,-0.1865038905355296,-0.058645695177988,1.38177611154514,-0.7716535021720812,-0.0577094707640442,0.3017123177315815,-0.2993713260844335,0.3482120880616691,0.4426783226960509,1.317240578637327,-1.3347162120065348,-1.1407917834220775,0.0544877745373073,-0.0092521031486031,-0.9352708339585608,-0.0001003957186196,0.0151087389263535,0.0196347295310163,0.7364047322361945,0.0145612689139625,0.0072808899099946,-0.2323383558299656,0.0015375421095175,0.0107315693511611,0.0071251509317905,-24.47480248199993,-19.740235657757907,-34.86957408814819,-6.837412697644565,24.711435915980736,-0.3430352832463788,8.94906658652604,3.077057006766196,33.56958353107595,-35.23454565674594,-28.176976034543856,9.207112502130244,-10.019347598016624,-2.5465758543284664,-0.1327503060645974,-6.25761370713002,0.0011294173923488,0.4069696144256141,-1.8172020100317992,9.656560930830835,3.174053910031944,-0.1097630524713382,0.7182309700165845,-0.0249576948942831,-4.454117027210103,-0.7868286679791471
43917006,0.04400229454040527,-0.0128182947720271,-0.0031392860367172,0.0613432181487505,0.2201399634065654,-0.2742974479060688,-0.0010319920588961,0.0054030780536565,-0.0049071173910872,-0.316318518973829,0.3632453791281159,-0.0361655591267194,-0.0167608743170167,0.2879233146461566,1.312653418423831,0.0001092343048305,-0.3786777984869474,1.5707923638089565,-0.0067181950800234,-0.0046693905754244,-0.2193279991880256,-1.3131440410019428,0.0001171788423625,0.060200061363038,1.5708250977533311,0.0109555147182446,-0.0122967804371419,0.179324287422172,-0.2192801634343441,-0.2559956805418188,1.6973383339945856,-0.7820658694633884,-0.0005614493839785,0.2040558320887766,-0.1609423143177002,-0.1673621037902334,1.4677566019752142,0.7794602438747443,-1.1094021718717668,-1.094218629490208,0.0546206593016012,-0.0086123854808557,-0.6915845955811386,-0.0014048724223823,0.0174779747427235,0.0197950887099618,0.8084277953165233,0.0134462603485029,0.0009699358561546,-0.1492751566322233,0.0015079065193302,0.0136810547868386,0.0091926423972249,-23.02659675491948,-18.05340874854013,-35.04995398898357,10.87146556505914,28.2059869444043,-1.3769252073946054,8.964425603192874,0.3836967754683183,38.16598662840276,-43.73407960217558,-28.35648700382374,9.205124788068757,-23.7688140761623,-2.653418423830999,-0.1092343048305159,-16.972561660410236,0.0039361910435218,0.0616153115400476,-2.218429129170887,15.973039400732375,3.144041001942924,-0.1171788423625255,-1.1243829271017276,-0.0287977533312187,-4.717052233923779,-0.9606699952596572
45915159,0.046007633209228516,-0.0122899314174155,-0.0036947237597563,0.0604427602920955,0.224220264280825,-0.2759021841966413,-0.0009598285457536,0.0058408031794794,-0.0051827159943019,-0.3169183839762295,0.3666812664839192,-0.0353253134684162,-0.0186801876892952,0.2851333058972848,1.3126983749234138,1.8023017778469167e-05,-0.381268375457592,1.5707737926846497,-0.005802153297248,-0.0031161746114558,-0.2173984677360392,-1.3131269350451302,0.0001449514782244,0.0596151000415244,1.5708339173286407,0.0111940967397317,-0.0126291084731401,0.2879386895914961,-0.2932653115165863,-0.5147551413391884,2.154641180921023,-0.8095311831740004,0.043283957433188,0.2233777800778215,-0.1311413228468763,-0.3259830142540521,1.7673852073552605,0.3045567366659326,-0.9123508996623596,-1.458521233604545,0.0140222349753355,-0.0429429701924423,-1.4078192172131163,-0.0089977444884984,-0.0118832535212358,-0.0302110542336661,0.9997542642061956,0.0063052896184616,0.0107841587358103,-0.3115528612096664,0.0040144345257899,0.0056623688692193,0.0016609414323009,-23.36335384936208,-17.89064959077794,-34.19457123727664,8.849570917116395,28.348180965171736,-1.4782594442729575,8.885102879964537,0.3530211200664432,38.85988233216909,-45.50636890014341,-27.77947564142662,8.771590502492817,-20.978804038570612,-2.698374923413894,-0.0180230177784691,-14.381986620009172,0.0225073153505945,0.263875030809665,-1.703245118077793,14.043506956646295,3.126935045130267,-0.1449514782244519,-0.5394213173779292,-0.0376173286408629,-4.834480443033648,-0.9966317107200824
48006457,0.048009634017944336,-0.0116091720245451,-0.0043373294583016,0.059117327512803,0.2290634965344831,-0.2775589236893575,-0.0008195408665385,0.0063136094925526,-0.0054104521001432,-0.3175523828146747,0.3702011497596568,-0.0353533228542873,-0.0202496547786942,0.2820808464641737,1.31270331440744,-2.049012540307371e-05,-0.3841708959311169,1.5707677265428488,-0.0049540999680622,-0.0021479329808613,-0.2153010493162262,-1.3131307201830016,0.0001474461068083,0.0590403947478961,1.5708372497307277,0.0114011338097307,-0.0132239943227655,0.3553461694870272,-0.328213905522607,-0.7045196435171494,2.497886020555112,-0.8340548857388526,0.0764304507312071,0.2405370749199717,-0.1082831150714225,-0.3031118651699604,1.7381159544509444,-0.1154873539104217,-0.7444175041470484,-1.534730553102814,0.0005972163508449,-0.0114493600701659,-1.433146848234368,-0.0010062354042897,-0.0006235903809377,-0.0127561292418918,1.058442859333433,-0.0047175767507306,-0.0012280258745856,-0.2709983225367016,0.0010017432361441,0.0097005602610368,0.006349762298405,-23.86803238986473,-17.654996022687005,-32.55617505909633,4.9217679076805645,28.463398896479603,-1.5499125483426583,8.73625930555348,0.3105855120428185,39.33328624044789,-47.080038666315374,-27.086028122124446,8.452600543715533,-17.92634332188925,-2.7033144074400752,0.0204901254030737,-11.4794680690145,0.0285734571511966,0.3426468797450626,-1.3347785788740414,11.946087548698015,3.1307201830015856,-0.1474461068083197,0.0352842633087462,-0.0409497307275614,-5.007131426732062,-1.098591489169566
50020420,0.05002117156982422,-0.0108323461637906,-0.0050133322821431,0.0575446136109246,0.2343666227861352,-0.279251260925804,-0.0006216688114291,0.006815480251021,-0.0055933640201846,-0.3179968777253773,0.3734093840470728,-0.0361381384102807,-0.021520464713165,0.2790536389383785,1.3127100404207337,-9.953925072309929e-06,-0.3867306222382964,1.570773577685062,-0.0046988414341467,-0.0026181124003567,-0.2131734708119313,-1.3131564897262165,0.0001374929687021,0.058638568361004,1.5708372153839942,0.0115641648442499,-0.0141055982828504,0.3973618263827392,-0.3394838023942358,-0.80376800320431,2.6854505723545974,-0.8490083358787472,0.1055197709183826,0.2540357829629968,-0.0859305130195251,-0.1906591493141652,1.5518137322805217,-0.4802405875032435,-0.6008466306285827,-1.5016010044601924,0.0053561923788403,0.0096206093679237,-1.2188829048576342,0.0038191986238046,0.0098350757996492,0.0078568188090297,1.0626990257055364,-0.0154429140023496,-0.0057384990288803,-0.1760054356148272,-0.0002239481833326,0.0119009465479553,0.0093032990258529,-24.233811771308535,-17.502199056907074,-31.373285373266,1.890038210351637,28.586632959527336,-1.6080142236661672,8.594942252237889,0.2698551486710699,38.98236849443877,-46.94940933536635,-26.433349055497267,8.16241337470856,-14.899134517652952,-2.710040420733776,0.0099539250723099,-8.919743676682799,0.0227223149379369,0.1904648979375269,-1.3997660649835175,9.818508060216516,3.1564897262164777,-0.1374929687021304,0.437110936112262,-0.0409153839941609,-5.238453250933928,-1.274252942862358
51969766,0.05201911926269531,-0.0099953335498368,-0.0056903671869381,0.0558491137361188,0.2399136439938308,-0.2809583342101208,-0.0003726334258689,0.0073373501402719,-0.0057285993682076,-0.3181634615389581,0.3761513900233401,-0.0375734296386754,-0.0225339853997145,0.2761586669339107,1.3127417671320725,2.443706644159288e-05,-0.3887609651982204,1.5707825045743995,-0.0048676769365163,-0.0038805988765747,-0.2110780674099627,-1.3132018564245271,0.0001237982783816,0.0584376697618704,1.5708359734861737,0.0116927056889232,-0.014993187597516,0.4239764076545691,-0.3369799208694194,-0.856015270913262,2.791293952891753,-0.8539502454415417,0.1310690584892287,0.2627943746765506,-0.0615478392003945,-0.0465932204418171,1.3094561894455077,-0.7926140363182405,-0.4768090838078048,-1.4278691209086531,0.0199107790536433,0.0189041633268876,-0.9464779015493604,0.0043418133829975,0.0137235943177987,0.0178259721585256,1.0412059880857187,-0.0248614209413384,-0.0070371322093321,-0.0759243819518846,-0.0007252473908229,0.0109141500974951,0.0088426610858823,-24.50702437519425,-17.403251127250847,-30.62140262053536,-0.2733819401682069,28.64564343211213,-1.633799807374941,8.472035088212749,0.2207237969126216,38.24142743343235,-46.038873931373416,-26.123145054645462,8.027857489569097,-12.004161239852865,-2.741767132072482,-0.0244370664415928,-6.889402623954879,0.0137954256003922,-0.0722646662434221,-1.7201716492283594,7.723103677994118,3.20185642452725,-0.1237982783816831,0.6380098200147515,-0.0396734861735694,-5.465266011557867,-1.4571836722827538
53911011,0.05400347709655762,-0.0091355022269666,-0.0063343971460175,0.0539214092340441,0.2458989844653298,-0.2826738774938325,-9.265226593622417e-05,0.0078563155110648,-0.0058042086447456,-0.3180509912830447,0.3784096628443675,-0.0395604942301369,-0.0233224329550097,0.2734530148698141,1.3128197997424451,7.25480319553343e-05,-0.39025376315941,1.5707900568728872,-0.00523346966934,-0.0052731165403277,-0.2090601146750005,-1.3132626039041644,0.0001052382188118,0.0584296527324985,1.570832746603931,0.0118031071975411,-0.0156605218066697,0.4264806217742923,-0.3117327625998185,-1.0538580266297966,3.155722609953834,-0.8627546435186526,0.1384946263224075,0.2533452096351832,-0.0271478840838683,0.0835542659141398,1.0761329124569197,-1.0569281183153008,-0.3677110532690979,-1.3204639476041864,0.0487880811115625,0.027369431212902,-0.6800919620707748,0.0037896557648657,0.0122944259659289,0.0191811993902227,0.9929589399472756,-0.0316966811982008,-0.0113273298114108,0.0222332364850927,-0.0022636917773616,0.0077445615306392,0.0059130410565867,-25.72504367349559,-16.031760271397278,-34.63795089555857,14.551921543767406,31.64527813044789,-2.1938858902772376,3.1375873195409296,-4.487121346645986,42.32673988653267,-40.17423453241349,-24.664389673412487,7.641754543476244,-26.15986403223917,-2.8197997424454115,-0.0725480319553343,-12.873777237372224,0.0062431271128389,-0.3313855701153589,-2.1042500221228915,13.8688582405791,3.26260390416428,-0.1052382188118873,0.1352387290668986,-0.0364466039309263,-5.638138937723705,-1.5923665291035498
55916684,0.055954933166503906,-0.00822724740608,-0.0069708677793886,0.0514369070603831,0.2529057955011598,-0.2844281192405768,0.0001741697746073,0.0084086033589169,-0.0058683353442883,-0.3177117415015053,0.3802098973112693,-0.0419995658016841,-0.023909590125241,0.2703900460095127,1.3129031316492985,5.4017083464881865e-05,-0.3924163066164944,1.57078459684137,-0.0049001662393454,-0.0044370602532965,-0.2069185293672579,-1.313327430848466,0.0001125096777208,0.0582928650765762,1.5708330964769983,0.0119044450440634,-0.015674213580063,0.459844387103962,-0.3176234074394596,-1.2968497319776744,3.6038566399579377,-0.8810451037290188,0.1320376677262174,0.2812773213024966,-0.0321874537128217,0.1982411634512297,0.8441277471361016,-1.2703251744368889,-0.2698895384727022,-1.5762079059305671,0.0402956024103071,-0.0094595769980553,-1.151104120134985,-0.0024112266982433,-0.0080744124296001,-0.0153112584611073,1.0871580159065233,-0.0327680961178826,0.0026953627432413,-0.0817286002404114,0.0001105364198693,0.000358119170855,-0.0014711142294045,-25.892986089929067,-15.968966742030744,-33.59765391690033,12.07264907524787,31.73846883546898,-2.2416142215949355,3.01402936651732,-4.468595159450096,41.95381204987064,-39.54439466192311,-24.124047313837583,7.2789863543947,-23.09689458007287,-2.9031316492983024,-0.0540170834648818,-10.71123474512251,0.0117031586298708,-0.1952272994282492,-1.8542339451214964,11.727272465670978,3.327430848466065,-0.1125096777208089,0.2720265251568676,-0.036796476998461,-5.658589131457655,-1.5782134420342844
57965213,0.058004140853881836,-0.0072976136391589,-0.0075820597037686,0.0485593305137537,0.2606332017960355,-0.2862058989498523,0.0004227127048488,0.0089829714569876,-0.005919522486516,-0.3171438076383065,0.3815800361406855,-0.0448024995688815,-0.0243181385278389,0.2671507406895257,1.3129916998442512,6.27988579223008e-05,-0.394715383238862,1.5707857703362844,-0.004653126141182,-0.0040470509967168,-0.2047152556181679,-1.313394884656477,0.0001070753930164,0.0581541478802157,1.5708304845098084,0.0120218004105186,-0.0156690629708425,0.4642017380125905,-0.2999956630734781,-1.4716280406844526,3.9241438694786814,-0.8899770344829571,0.1217981216727751,0.2880350638107066,-0.0230495240497258,0.3126643285422101,0.6343360455933024,-1.441732531983804,-0.1832578991715903,-1.6244467840723382,0.0466345094604768,0.0089816389081113,-1.1257292894376496,0.0013633970225335,1.3830304797923278e-05,-0.002647029426906,1.1025049775010252,-0.0338041979657371,-0.0040772868581426,-0.0602230729502385,-0.0016913624593505,0.0012100582560592,-0.0008054328697567,-26.152574771102085,-15.90477543746866,-31.058915067172563,5.931444914338229,31.837753990258197,-2.2645819415447592,2.8176727756933446,-4.48442562731825,40.770642781816605,-37.77913858955812,-23.62819095238409,6.934069628493452,-19.85758807990501,-2.991699844251343,-0.0627988579223008,-8.412160046639201,0.0105296637154879,-0.1473481934895143,-1.7219660490680568,9.523997785050994,3.394884656476961,-0.1070753930164766,0.4107440010121479,-0.0341845098084832,-5.677422824568941,-1.556974312441942
59942901,0.0599980354309082,-0.006388572651139,-0.0081366463716231,0.0454643681545406,0.2687631755778451,-0.2879803220591959,0.0006516594683166,0.0095532975093274,-0.005943357282938,-0.3163490289236441,0.3825612435308456,-0.0478864518368021,-0.0245675118974286,0.2639470718889085,1.3131094440413127,0.0001000519150057,-0.3966824454545828,1.5707901199904917,-0.0047661022942079,-0.0046510568830932,-0.2025385945588453,-1.313461773804978,9.4190938294436e-05,0.0581187026079498,1.5708259530211035,0.0121417745596972,-0.0157050683475164,0.450482269276023,-0.2689642292798684,-1.57309325811569,4.11252244332106,-0.8855142534419329,0.1112931419205234,0.2834704480791761,-0.0075005150151672,0.4255163143951829,0.4432786576456196,-1.571926767484255,-0.1059382329090485,-1.5896935740123863,0.0636754320363717,0.0211094877684138,-0.9291405208321972,0.0022495808734416,0.0075957122935129,0.0108968923909311,1.081430363257967,-0.0333188764664064,-0.0069874521532758,-0.0022213970551258,-0.0023757040839954,0.0013767996952667,-0.0006931029661139,-26.20215275586183,-15.925773472028403,-29.8311312907425,2.82420066544346,32.00761217557675,-2.2653109504944444,2.7663534675468298,-4.527974130887072,39.93457512376627,-36.65760249975956,-22.981722144536885,6.5469019124292585,-16.65391810382289,-3.1094440413125994,-0.1000519150057287,-6.445099747114796,0.0061800095083981,-0.267544522085751,-1.8807561315108567,7.347335797920806,3.461773804978065,-0.0941909382944359,0.4461895516560901,-0.0296530211037406,-5.706202751770029,-1.5447878926966647
61920361,0.06199383735656738,-0.0055239339086148,-0.00861789231303,0.0422595736172295,0.2771023042854534,-0.2897243827388517,0.000860016213555,0.0101043003180706,-0.0059313763987032,-0.3153343454472017,0.383186557806746,-0.0511708272655454,-0.0246755081796442,0.2608634505667099,1.3132686961739255,0.0001503567374192,-0.3981898372754368,1.5707935497270868,-0.0051227471862018,-0.0057449027744671,-0.2004328408340938,-1.3135255944630384,7.989027413114634e-05,0.0582055968064754,1.5708215040477602,0.0122620830301357,-0.0156457048789592,0.4255635254023109,-0.2307120304039105,-1.6089643214868876,4.1828846066098855,-0.8663690749561828,0.1008342319834477,0.2723691272495775,0.010723966538113,0.534198457898521,0.2704251978317752,-1.6623848864145652,-0.0373856358785142,-1.5242641616017796,0.0851876937104817,0.0261690980819769,-0.694977347794833,0.0015120626441997,0.0098157219548903,0.0166273359460778,1.0421566418584582,-0.0313522120540765,-0.0071380231089698,0.058312215298593,-0.0021491840447738,-0.0001105802399075,-0.0021640498305422,-26.189962073021423,-15.977968096273385,-28.974946003053105,0.4970572067478471,32.09837115567613,-2.2613947616962884,2.7502297065582004,-4.584205090497437,39.07954556745776,-35.585197421760746,-22.607741159172157,6.232567730745231,-13.570295610856649,-3.2686961739257185,-0.1503567374192495,-4.93770983480016,0.0027502729130901,-0.4592506501405712,-2.1942942725975647,5.241581149069219,3.5255944630384874,-0.0798902741311463,0.359295630396133,-0.0252040477603259,-5.713026689670276,-1.5105302474506224
63891006,0.0639808177947998,-0.0047298507620292,-0.0090081038190711,0.0388201056742732,0.28586061775018,-0.291424092359743,0.001049469137649,0.0106163769965375,-0.0058729420521479,-0.3141367336580891,0.3835023917404881,-0.0545794742038936,-0.0246585026418057,0.2579502918920452,1.31348049313086,0.00021099494457,-0.3992474780513119,1.5707963120314683,-0.0055966978606516,-0.0068214777643128,-0.198432916132408,-1.3135834595749367,6.280573780040067e-05,0.0584149715604586,1.5708167396835218,0.0123865369749837,-0.0153913468352859,0.383750155258648,-0.1804007294665542,-1.825635161752707,4.563593166158765,-0.8481188927621188,0.0922433621056308,0.2471881120056048,0.0376755943409159,0.6110899079974454,0.126060603538779,-1.7152451561485662,0.0233296865264804,-1.4267575230778586,0.1151031112917892,0.0329959282656701,-0.4759322113440548,0.001598827529688,0.007563556006902,0.0160278554233369,0.9820335093153956,-0.0278742998347152,-0.010134325060302,0.1235823505697853,-0.0027887787397068,-0.0024958278076062,-0.0046955973306923,-24.036239778955974,-13.554923029396443,-37.37463354662066,15.673388080072908,32.64158774545007,-1.9554272178173155,-2.095596214150519,-10.667548298549038,37.38105964850703,-34.7045232079575,-20.87629939014652,5.82470482165445,-28.70028580137995,-3.4804931308599407,-0.2109949445700261,-6.986073601864234,-1.203146825901058e-05,-0.6269338499034993,-2.5238820075967827,12.850852319476616,3.5834595749367963,-0.0628057378004006,-2.4652548517294406,-0.0204396835217721,-5.675549647920411,-1.4305537561418535
65871057,0.06598210334777832,-0.0039571627550225,-0.0093645131201398,0.034756531604947,0.2957175920474352,-0.2931029961227163,0.0012337968519307,0.0111430887073693,-0.0058245597470541,-0.312823437799649,0.383532612058026,-0.0580308374072567,-0.0245309302970326,0.2547605741936757,1.3136910572196687,0.0002129878579452,-0.4007057360470127,1.5707905394076,-0.0055639670233678,-0.0065671449076805,-0.1962275361210394,-1.3136284282789985,8.233527870499293e-05,0.0581968620142252,1.5708193897050136,0.0125172466750835,-0.0140795708329207,0.3841831204922688,-0.1750451836307794,-2.0913010494137256,5.03248200272451,-0.835513525203605,0.0909396510668847,0.2663744528740498,0.0212031042821834,0.6716202780558852,-0.0191990344533809,-1.726680132277337,0.0765569823263088,-1.6320731677719658,0.1028519390458354,0.0001661499722544,-0.7694897638797318,-0.002641547587578,-0.0028066287001285,-0.0047904226536799,1.1279832284312643,-0.02089029665687,0.0081941321279926,-0.1542950176555388,0.0012528297691314,-0.0146916856590948,-0.0170410574605187,-24.138854046034957,-13.524656457764838,-34.96792340678931,10.222631878716548,32.68844218661212,-1.94828029583077,-2.2600004409008805,-10.624420528035037,36.75521825646838,-33.69435421187072,-20.60132418912013,5.432093815669942,-25.51056702632181,-3.691057219668664,-0.2129878579452959,-5.527817514067749,0.005760592399838,-0.5737877966686601,-2.4595541084614325,10.645471436508842,3.628428278998172,-0.0823352787049929,-2.2471450427242488,-0.0230897050134899,-5.395065940104505,-1.105421811696755
67859552,0.06796479225158691,-0.0032247859061008,-0.0096770723400193,0.0303106015663791,0.3062332574696665,-0.2947368068998555,0.0014179261659771,0.0116756184008568,-0.0057881413255799,-0.3113885265046878,0.3833065857885044,-0.0614604390729394,-0.0243109382424526,0.2514073325289098,1.3138952283355714,0.0002340782756001,-0.4021967501768741,1.5707901105757678,-0.0055331801930473,-0.0066897356382421,-0.1939253744475206,-1.3136603064685708,8.26508666819141e-05,0.0578248224597203,1.5708180523206208,0.0126511426175116,-0.0130416296880443,0.3587435964921271,-0.1488463295296839,-2.259810717116581,5.320144853307439,-0.8095272695028268,0.0913375935103494,0.2650454081273372,0.0179915337772231,0.732950423847373,-0.1431335379442439,-1.7084117177276603,0.1205277479029192,-1.683447470585366,0.1028108854057967,0.0142758671050234,-0.7215125917790565,0.0005030299683507,0.0032923544361392,0.0037705223331526,1.1524573104992288,-0.0142381108453471,-0.002070659773482,-0.1852335900399246,-0.0012334970401118,-0.0092655116873509,-0.0114774678473463,-24.10686541639405,-13.5626203214838,-33.067679392858594,5.895545531745178,32.76087489948921,-1.950517791333776,-2.3225840773206854,-10.6195202113118,36.10025512272721,-32.77708690813993,-20.382335910684468,5.0528327022092645,-22.15732428916968,-3.895228335571346,-0.234078275600151,-4.036805284486661,0.0061894242321614,-0.6073568841450789,-2.482606973995252,8.343308894873843,3.660306468570752,-0.0826508666819141,-1.8751052264976595,-0.0217523206208625,-5.178329301092246,-0.8429534920936647
69862913,0.06995892524719238,-0.0025634375279012,-0.0099206832791925,0.0256407995231727,0.3171206283130605,-0.2962970587761053,0.001603189057189,0.0121884073993413,-0.0057468163358127,-0.3098276046225438,0.3828504150174008,-0.0648114949703011,-0.0240165332538272,0.2480576941195295,1.3141134920122752,0.0002791651160642,-0.4034013057516981,1.5707931209185346,-0.0057652635943833,-0.0074193170903875,-0.1916588859760045,-1.313678068019629,7.144016818547159e-05,0.0575270565933987,1.570814130042996,0.0127604654141376,-0.0124855063142289,0.3205711383013576,-0.1121728816942447,-2.354640245499536,5.475474062527337,-0.7691049998190467,0.092146542364059,0.2528293263801877,0.0220063633948698,0.7964173463323242,-0.2555765560844357,-1.6623812860421374,0.1555639429793862,-1.668424588575962,0.1117652008395009,0.0247407225723318,-0.5580366763104574,0.0016705664001829,0.0071250356592555,0.0121811287164546,1.1239619379987238,-0.0070600573166499,-0.0063614073449875,-0.1334038691696832,-0.002069550533908,-0.0044925670817416,-0.0062365215932115,-24.00197841460616,-13.6409712428976,-31.564741813919586,2.413019481659205,32.81538766684973,-1.9578329028249064,-2.328166238387934,-10.636936948834474,35.4072692113887,-31.889628211515785,-20.21511447302054,4.690412795907783,-18.807684811688404,-4.113492012275174,-0.2791651160642497,-2.8322516023494018,0.0031790814653049,-0.7362111507503143,-2.690743735958062,6.076819558710412,3.678068019628881,-0.0714401681854716,-1.5773390995002217,-0.0178300429959108,-5.068614618891278,-0.6959038118930515
71823419,0.07195734977722168,-0.0019891410413988,-0.010082111532538,0.0208659895188475,0.3281690973814233,-0.2977546317878232,0.0017884978227919,0.012666414682741,-0.0056906116655198,-0.3081387946792197,0.3821837588065927,-0.0680334383711058,-0.0236653375137622,0.2447852580032864,1.3143566210849065,0.0003367903868328,-0.404238177365901,1.5707963424999802,-0.0062015469970386,-0.0083529694113997,-0.189488921940655,-1.3136809712657906,5.70807887250824e-05,0.0573669395664741,1.5708101217252313,0.0128409700988141,-0.012148338313464,0.2755903863877611,-0.0698902784989587,-2.394393480819757,5.5335817569453205,-0.7141537515464382,0.0922117640202312,0.2339438886780483,0.0304293431575375,0.8603618422484197,-0.3584637691880126,-1.5919608033682309,0.1818309967951104,-1.6238778160990102,0.1250474784180953,0.0298529365700589,-0.372132055153116,0.0015397017111433,0.0067182159985811,0.0148152905588833,1.070565779931628,0.0004372037712152,-0.0072969843777801,-0.0620145455140203,-0.001951376410715,-0.0030327703458282,-0.0042857566107096,-23.851733198283487,-13.74683337954853,-30.371260401133227,-0.4243975743064894,32.84590325813666,-1.96688350263815,-2.2958799967191883,-10.669512495260555,34.685840247227304,-31.02275335341297,-20.093970819103944,4.345790133728571,-15.535247631612435,-4.356621084906237,-0.3367903868328311,-1.9953818732701047,-4.249998028171831e-05,-0.8773192462353955,-2.98089052681099,3.9068546621688256,3.680971265790731,-0.0570807887250824,-1.4172218129413992,-0.0138217252313097,-5.004523425951337,-0.6043203211283539
73825948,0.07396078109741211,-0.0015147319134741,-0.0101497235753058,0.0158870879702235,0.3395443671081705,-0.2990924759233049,0.0019786135287401,0.0130938205811027,-0.0056044025348759,-0.3063488082691094,0.3813370593320122,-0.0710829964537451,-0.0232743147559827,0.2416415683359363,1.3146328883278111,0.0004034002610487,-0.4047264935207464,1.5707995498685563,-0.0067453074678606,-0.0091215029794325,-0.1874530490038855,-1.3136688685798552,4.002465390607872e-05,0.0573562465306082,1.5708057159406992,0.012903830265651,-0.0117905289346953,0.2228923685552169,-0.0201119299050131,-2.5806661112770475,5.840740120924778,-0.6564330977773656,0.0985963819316428,0.2047368100085603,0.050380012696545,0.8980396494324137,-0.4403249254982755,-1.5007397203370498,0.1998167654900946,-1.547846568896164,0.1438991940367422,0.0352796761179789,-0.2046894627824858,0.0018467059943461,0.0031563449336622,0.0127478479674121,0.9972608373554606,0.0078447307980901,-0.0097650183230959,0.0166123123031158,-0.0025690985854684,-0.0038820006623327,-0.0050136136284325,-18.748370353921292,-9.836097869527602,-37.0751728213333,13.407705789631391,29.307344907439617,-1.2967239526824574,-8.216454705500354,-15.16365296966225,30.59261524582717,-33.197808824245755,-18.511304687657635,3.970573430420259,-30.06873576699164,-4.632888327811088,-0.4034002610487808,-4.721868588295422,-0.003249868556395,-0.9619391030456838,-3.2512635833271166,12.277615989112064,3.6688685798551433,-0.0400246539060787,1.5467521672744766,-0.0094159406992275,-4.932656741522415,-0.5109860984627669
75839359,0.07596588134765625,-0.0010722685993229,-0.0101858656959569,0.01035369522355,0.351844414641612,-0.3003236891195917,0.002197952304523,0.0135305756269189,-0.0055330848237824,-0.3045239430693315,0.3803249262481642,-0.0739158505117762,-0.0228588210438952,0.2381919755326531,1.314886691813337,0.0004092669153457,-0.4057123587501005,1.5707944397438152,-0.0067586399211373,-0.00850034215155,-0.1853927106314409,-1.3136409004876677,4.557570345701221e-05,0.0574459497257733,1.5708045626062692,0.0129621382339448,-0.0117056140786328,0.218448189600391,-0.0155151942691452,-2.819235446718078,6.235834709945439,-0.6008082333041453,0.1146646342118734,0.2211059218296353,0.0319154229408411,0.9180337558776944,-0.5266341010427427,-1.3872142060978627,0.2100648585895543,-1.7649734452088783,0.1217263048025334,0.0016872568936155,-0.5442789559109013,-0.0023547222268265,-0.0075024233698556,-0.008669342733046,1.037424608100593,0.0158914393248395,0.0030538750240498,0.055699083380109,-0.0001055265818137,0.0002894142394835,-0.0007588002375789,-18.78366968998682,-9.845189600750563,-34.53707825935241,7.936033209129626,29.284233761374235,-1.304046182181226,-8.355078420561828,-15.117530502837296,30.10767756719991,-32.37097531698794,-18.475974226225325,3.615350071684134,-26.619141989737216,-4.8866918133371655,-0.4092669153457858,-3.7360052438284574,0.0018602561847274,-0.816212175893453,-3.1100877785935026,10.21727681025098,3.64090048766775,-0.0455757034570122,1.4570492432681164,-0.008262606269227,-4.923005314311471,-0.4814243170745806
77896270,0.07797741889953613,-0.0006697765766327,-0.0101862478597893,0.0044937310160722,0.3646633824263647,-0.3014221442867369,0.0024463230135503,0.0139742288368835,-0.0054818110087757,-0.3026462422729787,0.3791586845226161,-0.076503282493185,-0.0224355568309908,0.2345580957778246,1.3151103010062184,0.0004306704471013,-0.4068098036080219,1.5707941082716634,-0.0067928754503956,-0.0082629933011887,-0.1833065656568334,-1.313597959842587,4.769158302303424e-05,0.0576271246179941,1.570805046422968,0.0130251453188088,-0.0117253179813656,0.1943852810925491,0.0059339131827931,-2.9599536395137536,6.455075183659273,-0.5308384424572379,0.1299446218287386,0.2210601981095163,0.0242314271156975,0.946346477874412,-0.6012158063203568,-1.2616751256703918,0.2119610231286988,-1.8259142890206943,0.109409606246136,0.0140072533516694,-0.5334718704341681,0.000473376226242,-0.0013963545401276,0.0002954317948224,1.0426966740396315,0.0233144160851496,0.000367870195302,0.1021983322549789,0.0002746943828381,0.0006770504238455,-0.0003797639210421,-18.715679110397332,-9.90948724180816,-32.5207762610828,3.581176980487193,29.27232774266845,-1.334953638292129,-8.412524719256627,-15.101144111312742,29.56226107594905,-31.592330200424048,-18.483397930842106,3.2790627244981625,-22.98526126482952,-5.1103010062183785,-0.4306704471013627,-2.638562263262031,0.0021917283365837,-0.7555520405001135,-3.0611213828289343,8.131131032449446,3.597959842586988,-0.0476915830230342,1.2758746211224905,-0.0087464229679881,-4.938304784003941,-0.4752099820526951
79952292,0.08001279830932617,-0.0003316372614323,-0.0101288273473532,-0.0015370697146106,0.3777263590604036,-0.3023594550678716,0.0027194941787791,0.0144025764377249,-0.0054353420875318,-0.3007041397569566,0.3778557116575426,-0.0788261857097009,-0.0220197904103446,0.2309150363951592,1.3153232816449043,0.0004731324752706,-0.4076830218653904,1.5707967538972123,-0.0071105319089841,-0.0086641337797639,-0.1812449197677235,-1.3135404748120534,4.523646811675361e-05,0.0578963058860096,1.5708055229592246,0.0130757640245836,-0.0116417349038032,0.1599892792868647,0.0369054372318467,-3.0287716732493277,6.548056463090956,-0.446783257519615,0.142687480540933,0.2112201632741762,0.0233701174717223,0.9795538508443872,-0.667585815079394,-1.1274781735384418,0.2064339364556813,-1.816179067863573,0.1060998528890421,0.0231174909560463,-0.3992419092328073,0.0014546067589474,0.0026664060233036,0.0092534353490565,1.0252904145808257,0.0305321034634787,-0.0016791901675158,0.1448224447147093,0.0002159855148581,-0.0010501633475449,-0.0018310497622016,-18.58765721234497,-10.00986648057202,-30.90170791253278,0.0564531649768582,29.23683946994305,-1.368446355581626,-8.419009733189313,-15.104601142142512,28.974596334924783,-30.84108610879464,-18.527561532465704,2.963355872125368,-19.342200915961428,-5.323281644904455,-0.4731324752706997,-1.765345875746732,-0.0004538972125374,-0.7939409782298406,-3.208024616828143,6.069484343355043,3.540474812053389,-0.0452364681167536,1.0066936221029792,-0.009222959224644,-4.9276487358437056,-0.4472691985370042
81903925,0.08198356628417969,-7.18423080346954e-05,-0.0100004815867209,-0.0076240735934624,0.3908339902153896,-0.3031087835661463,0.003010859801052,0.0148008223121785,-0.0053831191023509,-0.2986924603649086,0.3764319136320523,-0.0808728726569985,-0.0216250450008031,0.2273450415460318,1.3155380238074146,0.000526033947867,-0.4082377178442849,1.570799558788999,-0.0076442945506283,-0.0093015503826846,-0.1792433028436161,-1.313468954656042,3.9841410936159416e-05,0.0582387273048328,1.5708057067625942,0.01310198773612,-0.0113636355914762,0.1194684928335767,0.0736327022481758,-3.044648871881686,6.549241597749162,-0.3495837493238222,0.1518205774676062,0.1946061113234193,0.0273770393385514,1.0146605194063392,-0.725998190575784,-0.9883792589942616,0.194341200803227,-1.7726650747962014,0.1081154320379723,0.0272741026503911,-0.2365159095455301,0.0013509651393641,0.0025325606028216,0.0123285386977037,0.9914614409228903,0.0374777012294702,-0.0029956482544931,0.1792302500707297,3.891396241593319e-05,-0.0036725958540825,-0.0039986330921615,-18.418826624020223,-10.1367332245032,-29.58904394496826,-2.8355216317275023,29.172533807848144,-1.400890287646983,-8.387711437114495,-15.123410895816518,28.361620445143465,-30.11896391471204,-18.600204060164508,2.66803016432976,-15.7722051044922,-5.538023807414675,-0.5260339478670379,-1.2106517592333716,-0.0032587889988917,-0.8499875201774691,-3.446409869250754,4.067866622459917,3.468954656041888,-0.0398414109361594,0.6642724712008601,-0.0094067625941534,-4.867930037093306,-0.3785936363493317
83903424,0.08398962020874023,9.82178892855815e-05,-0.0097869532450205,-0.0138195446428076,0.4040768670589222,-0.3036529390655704,0.0033183205629196,0.0151537931585343,-0.0053076095114753,-0.2966292674019086,0.3749152768428533,-0.0826392274693417,-0.0212630114412606,0.223904382216062,1.3157642101481477,0.0005857713863444,-0.4084822836062824,1.570802661624381,-0.0082892818909192,-0.0097984489389953,-0.1773349820825085,-1.3133843453432776,3.0470070155364744e-05,0.0586440231140031,1.5708046364318788,0.0131102193094424,-0.0108604263431314,0.072412496916533,0.1201107030085877,-3.1582053023799315,6.719421030452653,-0.2476568272725284,0.1629595620500287,0.168684787903402,0.0446607125220532,1.030944695959123,-0.7644862279862545,-0.8482096555221308,0.176669158338355,-1.6969316420526654,0.1158843954381938,0.0313454878278122,-0.0867071325966712,0.0018497520432024,-0.00078530241405,0.0105236026054351,0.938700681943666,0.0437753676455358,-0.0058571243187045,0.2124728956861936,-0.0009603325222344,-0.0063668415617884,-0.0065875207926213,-13.323589486837932,-5.841778109091005,-32.14423750155892,8.698064580255249,22.817526515254293,-0.8118009708180063,-14.594572517159856,-18.15272368811317,26.288158395037225,-31.428920090953238,-17.350199785474203,2.355638442443188,-30.18385368964977,-5.764210148147413,-0.5857713863444342,-1.7406709006197616,-0.0063616243812703,-0.8545864731951475,-3.671342670327512,13.184214047502763,3.384345343277573,-0.0304700701553647,-1.7937323643778456,-0.0083364318788881,-4.753178686369996,-0.2610268544130545
85875159,0.08598661422729492,0.0002540244927921,-0.0095482686883278,-0.0203463922705243,0.4178611048057,-0.3039952286761084,0.0036562981162487,0.0155287065926701,-0.0052527823737871,-0.2945519454206485,0.3733117164630132,-0.0841184279681253,-0.0209428148359939,0.2202215791582386,1.3159470066690513,0.0005880277328609,-0.4090367565205233,1.5707992594193645,-0.0085378474392827,-0.0094473048114547,-0.1751987626423152,-1.313288644808532,5.668335329433018e-05,0.0585741494322852,1.5708097484869807,0.0131189326494412,-0.0094251791694091,0.0770380035567121,0.1213643109210881,-3.292009558124143,6.936900339899878,-0.1445858084504704,0.1792526298837617,0.191505760739449,0.0230868895750558,1.0409580071983218,-0.8119187543760437,-0.7039702241262384,0.1545886467288167,-1.874267345308679,0.0841326959390246,-0.0005405968453173,-0.3082587772544631,-0.0016366898788917,-0.0058485836918911,-0.0028189253592708,1.0961514807315489,0.0489790715845931,0.0112166504519048,-0.0848929954059335,0.0023508767896558,-0.0168300434721579,-0.0170611756009905,-13.366971878494686,-5.876567925198558,-30.03604244155029,4.14317710983358,22.69513460307309,-0.835910693964041,-14.757416127777743,-18.09512974717164,25.812614131350013,-30.74410912265989,-17.465146231223272,2.0629720525488207,-26.501049757714043,-5.947006669051234,-0.588027732860932,-1.186199837400693,-0.0029594193645152,-0.7310416949296867,-3.6327075487951297,11.047993866622733,3.288644808531899,-0.0566833532943301,-1.7238584261381078,-0.0134484869806783,-4.423362289664821,0.0717770923668692
87933274,0.0879974365234375,0.0003818566967225,-0.0092753446676249,-0.0270351114123304,0.4318783162698418,-0.3041134892753884,0.0040180400482297,0.0159179423480449,-0.0052201928091091,-0.292454645756471,0.371641709224626,-0.0853194916231288,-0.0206736534498489,0.2163896925777965,1.316085480887743,0.0006005512446496,-0.4096246543461839,1.5707991796502223,-0.0087574986642285,-0.0094102091392341,-0.1729467737923959,-1.3131840387302791,6.118850054266501e-05,0.0583163476385385,1.5708099575344048,0.0131233994276075,-0.008342276457719,0.0582067514377011,0.1426716250696597,-3.356768889199779,7.0232765460435465,-0.0297339927999434,0.1912677879823049,0.194444518598502,0.0148946840672951,1.051439370679941,-0.8418219391565462,-0.5666632346342428,0.1279863015702801,-1.922768199545324,0.0653448286108617,0.0088987657270136,-0.2773176649934064,0.0004523038727892,-0.0011646469622421,0.0032342273657533,1.1293539287893657,0.0534174165701037,-0.0002750312136613,-0.1318821466959741,-0.0005634868270697,-0.0107716663125703,-0.010745688967213,-13.289433804410578,-5.975969990335645,-28.309742626735265,0.4547571447167016,22.569473793963525,-0.8754991404989871,-14.822710565271736,-18.07478977405649,25.3302660176248,-30.16738523675119,-17.59838412365822,1.78817318671949,-22.669162306652535,-6.0854808877429605,-0.6005512446496207,-0.5983038553653159,-0.0028796502226668,-0.6849609944730791,-3.661661045068983,8.796004278976596,3.1840387302790987,-0.061188500542665,-1.4660563768946488,-0.0136575344047287,-4.174150007789168,0.3225227473056363
89938945,0.09000015258789062,0.000453036893704,-0.008942912027167,-0.0337720265643527,0.4459218058625009,-0.3039867509095227,0.0043935325008275,0.0162949873216199,-0.0051907218730898,-0.2903323212847566,0.369924760887904,-0.0862580169439643,-0.0204626543108352,0.2125583644437965,1.3162028165927595,0.0006303207789281,-0.4100096112819898,1.570801552649809,-0.0091552693871788,-0.009752469798596,-0.170717585724866,-1.3130705553969266,5.200384456611776e-05,0.0581063156797923,1.5708068316554982,0.0130970515635623,-0.0077714532481854,0.0273200320111069,0.1747199971723574,-3.3685270859141383,7.014501916135472,0.0951641623978505,0.1978277226087895,0.1857871074112984,0.0152666954586111,1.0646018786262776,-0.8634687926804931,-0.4375549354914049,0.0980986730618927,-1.9097555408439568,0.0571341682300768,0.0164726171948325,-0.1609002098809313,0.0013196810805383,0.0008055358081085,0.0083604448469584,1.1065656951498353,0.0578389840545182,-0.0055859631735697,-0.0924201148963926,-0.001753870948003,-0.0057786207373522,-0.0051800266762362,-13.144253632885205,-6.115331349903274,-26.891810416044635,-2.573388156311779,22.41760451511022,-0.9126960053610896,-14.82843935590047,-18.07973702991296,24.82682607560389,-29.638128628004715,-17.74275420458823,1.531355298569017,-18.83783330551219,-6.202816592759746,-0.6303207789281281,-0.2133487558175488,-0.0052526498088809,-0.6960680110746805,-3.8086514325519,6.566815476667728,3.070555396926693,-0.0520038445661177,-1.2560241636726914,-0.0105316554981982,-4.037884598892879,0.4497955218104931
91936926,0.09199714660644531,0.0004517722787257,-0.0085369085661509,-0.0404710082489469,0.4598407548054417,-0.303597786828886,0.0047716264258802,0.0166429122099116,-0.0051512613647152,-0.288180897325888,0.3681739395151509,-0.0869531559752895,-0.0203148272492427,0.208803570423711,1.3163139198082945,0.0006689603862177,-0.4101326672212659,1.5708042755980176,-0.0096965330790203,-0.0101377799202654,-0.1685771718274275,-1.3129485402256749,3.808118218055231e-05,0.0580136177402763,1.5708030792697154,0.0130355898495534,-0.0074356823725756,-0.0103776016896636,0.2127969270815409,-3.3402732862644307,6.936207675084663,0.2281779118166487,0.1985272212776686,0.1694919014465846,0.0216454312477509,1.079505398726596,-0.8788969570708229,-0.3184870121590182,0.0659416541807157,-1.8646483628105857,0.055433924765783,0.0200244225382884,-0.0286755812565897,0.0013448868284628,-0.0007483084307642,0.0089538539771106,1.0564995116716551,0.0620389631109727,-0.0072382509584486,-0.0305301300516223,-0.001875520095323,-0.0041979548913906,-0.0029997430566098,-12.955601064434168,-6.28234258956292,-25.721536877024043,-5.087497236403095,22.237554496261367,-0.9438564879884151,-14.792193561554829,-18.10400310336908,24.307120163228262,-29.14495077526673,-17.889565545321958,1.2914093694340218,-15.083038421751326,-6.3139198082942585,-0.6689603862177042,-0.0902946454618813,-0.0079755980175377,-0.6926090633977815,-3.9900949215513326,4.426400847386532,2.948540225674833,-0.0380811821805523,-1.1633259706978265,-0.00677926971548,-3.949885256654144,0.51681073645673
93886713,0.09399151802062988,0.000336653575561,-0.0080244790762999,-0.0471452733361682,0.473346141267522,-0.3019819975240445,0.0050621600063158,0.0169419693652033,-0.0050846799326894,-0.2860206888984349,0.3664161747881567,-0.0874281186499263,-0.0202324448947323,0.2051834423538987,1.316433697843205,0.0007135750881824,-0.4100110298089102,1.570807533396129,-0.0103036136322417,-0.0102781782616438,-0.1665668844237502,-1.3128155183784112,2.107988798599248e-05,0.0580523640404894,1.5707987216613477,0.0129523300050801,-0.0070972648851992,-0.0649131054492958,0.2665063368805152,-3.400938144129285,6.896593985206883,0.7949650550781433,0.1604600913424917,0.1422659806114582,0.0419119505008256,1.0722957870978846,-0.8717695993669876,-0.2119938148114023,0.0330795164090036,-1.7855508767116424,0.0613770449236179,0.0238179403727752,0.0869235614392368,0.0019682310498718,-0.0048611203711471,0.0058337830836424,0.984941742839924,0.0671556439262385,-0.0093863503828064,0.0383479399595263,-0.0024994615286201,-0.0047546194618142,-0.0035689944204577,-7.613352063971678,-2.305193465952049,-28.934704547633896,7.790340131676352,14.285734672727289,-0.7361821964057929,-24.008519099149296,-22.813996343719563,22.10381802364479,-32.501588751884164,-18.341094966088004,1.0322975935398624,-29.9936134340588,-6.433697843204982,-0.7135750881824534,1.6638042003876876,-0.0112333961294552,-0.6213481657213038,-4.126219322120996,14.228254893061576,2.8155183784110704,-0.0210798879859924,-1.285067179078311,-0.0024216613476255,-3.8575539927546334,0.5807146761395258
95930274,0.0959932804107666,0.000241170536032,-0.0075047718587526,-0.0541451362616962,0.4876302675458817,-0.300411487642207,0.0053510245485791,0.0172641789484114,-0.0050268035873212,-0.2838967211803095,0.364670548531865,-0.0877033648011422,-0.0202159741853684,0.2013939670499933,1.3165062495010964,0.0007072694993428,-0.4100490014255643,1.5708059020624687,-0.0106503817310961,-0.0100910190012978,-0.1644085780844128,-1.312679161193903,3.761920938438552e-05,0.0578440419288075,1.5708003107221715,0.0128871278513454,-0.0063504927873123,-0.0445834627889395,0.2598740448840136,-3.5240570819007986,7.201415493626693,0.7868322395946921,0.1517503677705707,0.1655589211635087,0.0256614193325178,1.0589896417631404,-0.8721278532992169,-0.1141111919274318,-7.120355739549666e-05,-1.920368461781073,0.028681906744361,-0.0054431076371327,-0.033772120850898,-0.00100352086944,-0.0042305675363663,0.0006928173404596,1.0994947328560518,0.0683535581158957,0.0073672783547873,-0.1295202982003457,0.000957525057025,-0.0088527395597069,-0.0078259904216063,-7.676802762541757,-2.3189522857465885,-27.790337181920894,4.929326162351927,13.242880582297396,-0.6862996801940011,-24.100807092380617,-22.789093210708927,21.93472867278622,-32.29731747784705,-18.482606553107864,0.7876368372059819,-26.20413735532435,-6.506249501096363,-0.7072694993428695,1.701774011004943,-0.0096020624687298,-0.5188995954470148,-4.1422292829129645,12.06994787996129,2.6791611939031554,-0.0376192093843855,-1.0767448163261548,-0.0040107221718699,-3.674037147328393,0.7419721871725964
97985353,0.09800910949707031,0.0001491247466084,-0.0069662777868532,-0.0612909665441844,0.5022422551329924,-0.2987809753155963,0.0056014798169813,0.017606046719481,-0.0049832022601206,-0.281795566136662,0.3629397621280686,-0.0878053908833353,-0.0202665246096869,0.1974869826040874,1.3165308193005705,0.0007035036111493,-0.4100718159468038,1.570805214188186,-0.0109241826557276,-0.0101648832323713,-0.1621700487175047,-1.3125413771450962,4.014535605154052e-05,0.0575763132110933,1.570800232108004,0.0128226331759603,-0.0059437233670135,-0.0481294217492444,0.2735443340411359,-3.576009241124972,7.314266945085396,0.8281893219431005,0.1295979438429231,0.1717385978715482,0.0208127689856502,1.0491626183087042,-0.8632653253681827,-0.0311979691585526,-0.0336768589927477,-1.9598093406517945,0.0077313798903317,-0.0003725507769133,0.0035533722040481,-0.0001445176755582,-0.0007747568871125,0.0041038313196443,1.1211315544184668,0.0691373213168338,-0.000348565260325,-0.1282093123088856,-0.000303779253089,-0.004036375618765,-0.0028313124424109,-7.672891734708102,-2.463873625061983,-25.055139324056523,-1.4905156378767188,13.219771927954673,-0.7101332078336404,-24.24221224150585,-22.763890896607982,21.397592484025285,-31.796307884656414,-18.616759968102578,0.5551082793141182,-22.2971521376856,-6.530819300570556,-0.7035036111493591,1.7245867334245304,-0.0089141881860541,-0.4891940718707369,-4.206057499031637,9.8314178419827,2.541377145096249,-0.0401453560515405,-0.8090158485450161,-0.0039321080041645,-3.5691278429451265,0.8248615337670272
99925818,0.09999942779541016,2.6586942903754484e-05,-0.0063824123552957,-0.0684082832822543,0.5167939251162829,-0.297013710065917,0.0058028374393319,0.0179436167290999,-0.0049402163349583,-0.2797008027816011,0.3612286126893334,-0.0877635975617465,-0.0203832483308954,0.1935758710554475,1.3165291454969197,0.0007110530709215,-0.4099328655484871,1.5708057315019912,-0.0112710499952,-0.0103865932995741,-0.1599569992016786,-1.312401530513397,3.3408113289641546e-05,0.0573992910696432,1.570798988729822,0.0127296945726039,-0.0058772345358745,-0.0666257675851249,0.2988037218466519,-3.5491142237521163,7.254312265811547,0.9044777702232578,0.1039830435564823,0.167014888197865,0.0222719528761473,1.047127291816818,-0.8527980336936182,0.0370323312623578,-0.0666116897838302,-1.950990665179456,-0.0029484159843685,0.0049685834186868,0.0932922387586162,0.0003539685390521,-0.0005648642451469,0.0057127887905422,1.099050725082618,0.070189924821015,-0.0040846468695617,-0.0731509118262624,-0.0006545059159258,-0.0009806285353517,0.0007374157062373,-7.5644800910470895,-2.6155542945809964,-23.793046080679684,-4.27220027928368,13.112225095720785,-0.6979204680199556,-24.262477794387888,-22.77385661855057,20.99085177196441,-31.493126049856617,-18.743029906925635,0.3352019034350775,-18.38603982039669,-6.529145496919455,-0.7110530709215428,1.585634543475976,-0.0094315019912301,-0.4811525326809659,-4.316510904794706,7.61836765776772,2.4015305133968923,-0.0334081132896415,-0.6319934580271749,-0.0026887298220117,-3.5379160451748843,0.8243391501128569
101923879,0.10199761390686035,-0.000147885745727,-0.0057372401396186,-0.0754144852343535,0.5310962534174758,-0.2950585410171183,0.005957126795394,0.0182592357826405,-0.0048851894860291,-0.2776052461926507,0.3595424253640054,-0.0876075244273173,-0.0205636879092453,0.1897297152754423,1.3165176459857353,0.000726057198775,-0.4096013791581098,1.5708067818667282,-0.0116876761031451,-0.0104846831994211,-0.1578253889364006,-1.3122596160249254,2.3133013390616958e-05,0.0573513906703291,1.5707978804325584,0.0126066541440344,-0.0059142297716906,-0.094756318285059,0.3309373756348449,-3.4852889256181334,7.111417364041063,1.0033635437886748,0.0805857241947833,0.1541587994683803,0.0297094353033292,1.0481775109744245,-0.8396193475586,0.090470341141046,-0.0981270670541416,-1.9117513944988624,-0.0061753767622612,0.0082076744707737,0.1893642690678685,0.0005765822931376,-0.0032330100599334,0.0041186417495603,1.0532703337128395,0.0712029290615243,-0.0053652984574048,-0.0076785489889071,-0.0005102427417643,-0.0007063962266563,0.0015179275385354,-7.401145888025416,-2.795827643983603,-22.774757479063744,-6.4184481931527415,12.936779450599436,-0.6731638531234037,-24.23922782770075,-22.803322556192917,20.56543913922871,-31.2144156412296,-18.855145110690955,0.1264218498276896,-14.53988327481403,-6.517645985735271,-0.7260571987750511,1.2541463686260954,-0.0104818667282415,-0.4326469699988156,-4.410330152834629,5.486756726771716,2.259616024925436,-0.0231330133906169,-0.5840928106406693,-0.0015804325585122,-3.525455370232794,0.7947864970853243
103925123,0.10399317741394043,-0.0003858276677198,-0.0050239729919114,-0.0823547434333337,0.5451998590643864,-0.2928964279163235,0.0060442852355389,0.0185369977916652,-0.0048029719311384,-0.2755204054049792,0.3578960697396003,-0.0873670609801416,-0.020803200587909,0.1860031347252848,1.316509185700644,0.0007469316824614,-0.4090987291114784,1.5708087315110115,-0.0121441012801253,-0.0102625245092617,-0.155810642204039,-1.3121153413549205,1.0530265303128173e-05,0.0574315320814266,1.5707965345907715,0.0124661030081984,-0.0058659618687353,-0.1265782609536185,0.3647037966850161,-3.496614053741681,7.0841382677059865,1.1042683536429323,0.0334357942949259,0.1324273304241359,0.046885517228074,1.0354950291052925,-0.8144413053550874,0.1288162134329525,-0.1267248091173199,-1.842561590707672,-0.0026867069914895,0.0115245953621776,0.2693774059160957,0.0012482085955885,-0.0076741834465944,0.0002217012791315,0.9899258337116872,0.0726280305968692,-0.0069832940900631,0.0572364472431765,-0.0008931811465532,-0.0021697736306447,0.0001734400948016,-1.7425943785768352,-0.1671175933339241,-25.107586900551134,4.795505219066556,5.359978606957752,-0.3314922344096571,-35.30007497707863,-29.971002976324403,17.940018186332345,-35.34766197985797,-19.26293302479445,-0.0987541742321012,-26.172672956961605,-6.509185700643911,-0.7469316824614283,13.003034318533764,-0.0124315110115276,-0.3033844389306641,-4.43698671851201,15.051100914639818,2.115341354920247,-0.0105302653031281,-0.3028440259416527,-0.0002345907714698,-3.49032283466418,0.7819267422841382
105943762,0.10600543022155762,-0.0006350530218163,-0.0043065645854858,-0.0893925775592599,0.5593838997614248,-0.2905455065003558,0.006010067909173,0.0188160414842548,-0.0047299788695937,-0.2734632044606537,0.3562893753568315,-0.0870666431804441,-0.0210944689534425,0.1824568999050984,1.3164804288353,0.0007622634264768,-0.40780280017268,1.5708137911950242,-0.0130021353313696,-0.0120210696393188,-0.1536681621602998,-1.3119691397162632,2.4938691887029885e-05,0.0573035090192665,1.570799377154807,0.0123351439209738,-0.0054659585939365,-0.1243180859340537,0.3568430652401385,-3.522406064597979,7.085290636538425,1.1978441787143,-0.0238392942346032,0.1416073795731505,0.0334606142032156,1.0257718249528485,-0.7988709773234777,0.1562183305260684,-0.152030159653462,-1.760486762994142,-0.0180482639212785,0.0044222448231678,0.7358303535323794,0.0015144221613277,0.0155866892900046,0.0305717301424438,1.0896523264320914,0.0730918817573273,0.0067164821078257,-0.0852877279575728,0.0015476545162398,-0.0054579262476275,-0.0033052837782132,-1.7214959576421185,-0.2367984918346175,-23.5452680102281,1.6669496838910405,5.097683824768638,-0.306627372131109,-35.38225090286035,-29.940217365250625,17.586917222381924,-35.10318151187008,-19.342157155426428,-0.3150902575186221,-22.62643744388896,-6.4804288353000175,-0.7622634264768284,11.707103662607947,-0.0174911950241494,-0.5629494313341754,-4.989676504091495,12.908620260689304,1.9691397162632711,-0.0249386918870298,-0.1748207161211254,-0.0030771548069878,-3.375628571669059,0.8519054784873651
107945473,0.10802650451660156,-0.0008876876468233,-0.0036007152539858,-0.0964186233814776,0.5734229108805547,-0.2880382742078237,0.0058990590477078,0.0191064529104742,-0.00467566689455,-0.2714303507836034,0.3547238482251998,-0.08673116848227,-0.0214324294292355,0.1789510234306289,1.316425146934862,0.0007541576684513,-0.4060714022242787,1.5708108419226812,-0.013664414984135,-0.0136067894769515,-0.1514456179837335,-1.311823511707387,2.9206404352544328e-05,0.0571297711178268,1.5708009041372493,0.0122041763451364,-0.0053355066842843,-0.1275023609875808,0.3518729828684855,-3.5069693830716164,6.991038812301985,1.27011826270026,-0.0570285119276445,0.1458953406058469,0.0255366234034155,1.0133125291596208,-0.7770738722802815,0.1705131122331783,-0.1747277911567055,-1.753247694699008,-0.0305539103076031,-0.006211531384701,0.8932655889393145,-0.0021984328998422,0.010773697060894,0.0205463879468229,1.1141654585218643,0.0726944465415912,0.0007296608316536,-0.0805999954324346,0.0004940594492178,-0.0016833199847204,0.0006209065332844,-1.6727320811235615,-0.3136486578146551,-22.232678934942737,-0.7618699926624757,4.841387487470877,-0.2094011868638898,-35.44144419343236,-29.92350594960691,17.255102261731228,-34.91134527821349,-19.40468400150272,-0.5266334088576041,-19.12056027930197,-6.425146934861914,-0.7541576684513527,9.975704003940848,-0.0145419226812464,-0.8160268203698945,-5.46900662903281,10.686075476350112,1.823511707387297,-0.0292064043525443,-0.0010825680106734,-0.0046041372493164,-3.323158507683232,0.859655595688238
109918629,0.1100015640258789,-0.0011565666749462,-0.0028984582924223,-0.103367511208596,0.5871716004900684,-0.2854274236691493,0.0057566282765702,0.0193956335285933,-0.0046282659447353,-0.2694210055603794,0.353206279754966,-0.0863857736325265,-0.0218113320534844,0.1754351602051972,1.3163509759377952,0.0007369931344118,-0.40422996731196,1.5708054706306085,-0.0139835529676237,-0.0141430808618566,-0.1492356799809937,-1.3116791693637833,2.5053050868338813e-05,0.0570456419950973,1.5708009175705098,0.0120523533245167,-0.0054452221157361,-0.1373228617308134,0.35133817893073,-3.4614861134932995,6.830843566957499,1.3148014407550204,-0.0690027550874801,0.1435778388195746,0.023597467387827,1.001953877738778,-0.7525391354393466,0.1724288764840636,-0.1944543836261707,-1.759223515021347,-0.0388555070298318,-0.0087998240154497,0.9233828060582926,-0.0026274853758491,0.0009643366070803,0.0051435738244082,1.0995042035943476,0.0719678515731354,-0.0028064132284441,-0.0273791740053798,-0.0001073145685456,0.0002930793497127,0.0029855140868487,-1.5886753037514303,-0.403337651004645,-21.11580098698897,-2.665214989344093,4.593174262595452,-0.1393163524142513,-35.46745016485647,-29.92385060503605,16.921385125611486,-34.7492233726486,-19.451929392886115,-0.7315576411722997,-15.604696366510524,-6.350975937795056,-0.7369931344118322,8.134267388190608,-0.0091706306084233,-0.8853624225222461,-5.647367163038972,8.476136868266082,1.6791693637833305,-0.0250530508683388,0.0830468004039204,-0.0046175705097084,-3.322571846397948,0.8083996138761127
111951104,0.11200332641601562,-0.0014550184348002,-0.0021887237225392,-0.110192213224362,0.6005272500252714,-0.2827693971274377,0.0056037942595341,0.0196698252187036,-0.0045756336908361,-0.2674310978269801,0.3517397291840544,-0.0860538730922236,-0.0222248275725692,0.1719222549342739,1.3162678541195183,0.0007223183348188,-0.4024122836427519,1.5708019440600116,-0.0140826161989185,-0.0136930815487559,-0.1470906918888994,-1.311536820804325,1.6651803976391074e-05,0.0570839763581766,1.5708002798222314,0.0118773910889527,-0.005577613521764,-0.1537092716451797,0.3565334317765526,-3.39448361075789,6.62351822545036,1.3315118815533444,-0.0729553753604768,0.1343715060154868,0.0277203127781886,0.9928204640452576,-0.7267930998806511,0.1628779864122964,-0.2109377946739521,-1.754098265649364,-0.0420266706322811,-0.0066096703327197,0.9013763090453036,-0.0014084527979318,-0.0082554338858782,-0.0071747441313616,1.0620052434972054,0.0708784964639391,-0.0045706191648117,0.0345146063515064,-0.0003816967928715,-0.000226090936336,0.0028574422325066,-1.4679445253985768,-0.5111889036269225,-20.152875600248212,-4.152180496538762,4.376255611452159,-0.103799102083067,-35.457063420550384,-29.94306133421404,16.57820406109274,-34.606804495958905,-19.48114895441896,-0.9308500890206995,-12.091790410974085,-6.267854119518233,-0.7223183348188273,6.316582022357807,-0.0056440600117184,-0.7645237992352311,-5.560366742843653,6.331148173246447,1.5368208043250888,-0.016651803976391,0.0447126820279635,-0.0039798222314857,-3.3232704394482178,0.7479567206194919
113888361,0.11399364471435547,-0.0017827590529985,-0.0014653845690982,-0.1169873881234718,0.6137134249064492,-0.2802462651318184,0.0054499495703166,0.019914915866566,-0.0044978206747166,-0.2654756058997368,0.3503380339320709,-0.0857573461975281,-0.0226660252288385,0.1684586895469497,1.316185691876973,0.000715884444064,-0.4006781743227673,1.5708017905759664,-0.0141008270156038,-0.0124882785845361,-0.1450476061509329,-1.311398101205578,4.684473646146256e-06,0.0572444042577028,1.5707985866287082,0.011694180601577,-0.0055725703818033,-0.1636634798878157,0.3620900803383866,-3.4401108140598087,6.679609787244107,1.1928278361007254,-0.0721007695923821,0.1177919136941283,0.0458369898605751,0.9663392588173534,-0.6879647635574065,0.1423914852441129,-0.2238488209730856,-1.719144691086087,-0.040466668083961,-0.0016460601120841,0.852607847295422,0.0005056237705309,-0.0159247191024173,-0.0157321746680556,1.0056937364645024,0.0685265400834765,-0.0068352210544335,0.0971638807259383,-0.0011740569709362,-0.0021039387194396,0.0008810931584677,2.9352939515711207,1.6827457221844315,-23.88507359545422,8.912360804061876,0.1583940967812471,0.1137500657453349,-42.39066909316036,-33.56507379236661,12.559654041254513,-39.07620022383151,-20.06424974748689,-1.1393887782984915,-21.096697054811614,-6.185691876972896,-0.7158844440640666,24.863965550297166,-0.0054905759664052,-0.4831845824994539,-5.285241048980309,17.53435954387841,1.3981012055780866,-0.0046844736461462,4.293375739164247,-0.0022866287081342,-3.290833548453237,0.7178330773930969
115912057,0.11599421501159668,-0.0020871760565692,-0.0007724231302332,-0.1239902850748216,0.6273369612918385,-0.2782806964894296,0.0053005601215106,0.0201520897371564,-0.0044087518470911,-0.2635710957995708,0.3490038042150495,-0.0855138776734998,-0.0231279283417051,0.1654127713936788,1.3160965147824528,0.0007437781469815,-0.3975954858040235,1.57081263957142,-0.0150608593418209,-0.014940381078498,-0.1429710414662784,-1.3112675443269928,7.164983360447507e-06,0.0575230951367086,1.5707969434665132,0.0115360954168249,-0.0060652225130371,-0.1473865952922608,0.3407850130561173,-3.5161271899891093,6.840298125463354,0.912234556268614,-0.0725919661313443,0.1199373814647247,0.0435105493470053,0.9478217357318508,-0.6614428129090275,0.1145216047708698,-0.2333807325374625,-1.4851223924611403,-0.0461309610849577,0.0100232166295105,1.6876151259826149,0.0038484317927538,0.0238774670293081,0.0418350363431196,1.0488987485762555,0.0640683412924729,0.0022912445267607,0.1517113197769866,-0.0003259136835325,0.0055416441951126,0.0081940541366617,2.893483739057539,1.6565759369787902,-22.02839594960847,4.790364431741516,0.0195679748694905,0.1253405227979155,-42.43222903519009,-33.56967341841722,12.289857159734336,-38.968323340625446,-20.057804531625724,-1.3437648719969708,-18.0507782753692,-6.096514782452914,-0.7437781469815998,21.7812754346412,-0.0163395714198486,-0.8854695105166202,-6.015500108437637,15.45779431739382,1.26754432699272,-0.0071649833604475,4.014685121645165,-0.0006434665133383,-3.377581764791226,0.5771010947489712
117909654,0.11798930168151855,-0.0023529267064064,-0.0001227312283215,-0.1310554531998153,0.6410363303957338,-0.2768595950813302,0.0051586574334956,0.0204029015931237,-0.0043297690216457,-0.2616985955603697,0.3477068630370136,-0.0853326766213559,-0.023603620490232,0.1624947299798178,1.3159911248474605,0.0007281902256443,-0.3939101322475316,1.5708088216908878,-0.0157770928463385,-0.016913113015286,-0.140823920531757,-1.3111473045081985,1.2654128474713493e-05,0.0578916357595337,1.570798557504066,0.0113761730854468,-0.0067130746410637,-0.1284354510137758,0.3199925443000651,-3.534072982200358,6.841307814992802,0.6470548155938334,-0.0681177473283735,0.1271037006531859,0.038184201288126,0.9327281155853768,-0.6446504333678189,0.0822433659161924,-0.239421309518048,-1.4595394277556326,-0.055063945594704,-0.0128577323064457,1.8618298525294956,-0.00336900400724,0.0128896291561963,0.022430886412435,1.0802621097437937,0.0587765393921006,0.0026213656857889,0.1946131118356401,0.0010710109691521,0.0059629714876139,0.0087495946914825,2.8332756021439565,1.634493395998429,-20.50768757134223,1.7694354021784022,0.3227003416518447,0.1296521995747963,-42.50066617240815,-33.56396214154848,12.005918832772949,-38.80054293824602,-20.03362072843743,-1.5450063455192238,-15.13273623783894,-5.991124847460242,-0.7281902256443407,18.09592028761853,-0.0125216908877519,-1.2186737766713025,-6.593391631671929,13.3106728432075,1.147304508198431,-0.0126541284747134,3.646144759261894,-0.0022575040659376,-3.4998458235429832,0.4002246039406502
119920850,0.11999201774597168,-0.0025914184283655,0.0004956803535754,-0.1380953614233156,0.6545599137163081,-0.2758886350759053,0.0050473038290084,0.0206620522367954,-0.0042582974655506,-0.2598501633669845,0.3464368812141816,-0.0852226893787131,-0.0240865695103881,0.1595253819020221,1.3158681326463773,0.0006884845434387,-0.3902868694531206,1.5707998075455505,-0.0158709656941173,-0.0169994266930614,-0.1386434793517095,-1.311037813101818,1.5450719082489567e-05,0.0583374669832013,1.5708010997575996,0.0111973235194383,-0.0072271837343038,-0.116964466370825,0.3062914917588112,-3.5126181869065367,6.727518553643257,0.4369168919452371,-0.0496364737500234,0.1298429556877915,0.035258601733627,0.9217182427318092,-0.6319895514018513,0.04556707815623,-0.2422461045937015,-1.4948002791220198,-0.0633744189754182,-0.0209544194321399,1.7830373072021977,-0.0044502538538687,-0.003912913990168,-0.0046624854119814,1.091826794061406,0.0534138920149365,0.0009085386809056,0.2318626655467333,0.0012646166897306,0.0037700618011201,0.0069192840639172,2.806924602783876,1.5952030479755783,-19.2284346984051,-0.4092280989011172,0.6572893926144543,0.1362069313815118,-42.5480520312585,-33.56447664517734,11.702291631217324,-38.60977311098475,-19.999340568499598,-1.7433770152272583,-12.16338753886609,-5.868132646377262,-0.6884845434387293,14.47265590903254,-0.0035075455502919,-1.2225703021194796,-6.629356727665657,11.130231125651605,1.0378131018178465,-0.0154507190824895,3.200313794995388,-0.004799757599585,-3.5880042312980582,0.250990788156
121965227,0.1220102310180664,-0.0028214524034204,0.0010991637315203,-0.1450525654404039,0.6677379263786257,-0.2752384307424982,0.004993062753359,0.0209155798967467,-0.0041854484732744,-0.2580179128077141,0.3451893620840474,-0.0851917329432503,-0.0245705922567871,0.1564793174418126,1.3157351685376713,0.0006494452847052,-0.3869620863939702,1.570793973926454,-0.0155625600340609,-0.0155392821977603,-0.1364699479075864,-1.310938683430481,1.4040683683727796e-05,0.0588478451225259,1.5708030427804656,0.010996505297371,-0.0075059614776314,-0.1151713801857762,0.3009145575081358,-3.465584674408168,6.537860532156732,0.2935053060423495,-0.0178896404462873,0.1250669995440259,0.037282912915711,0.9145582447347466,-0.6211017439561035,0.0051738932858004,-0.2420152591344331,-1.531249271892928,-0.0670416858852543,-0.0185014050861477,1.61886147795139,-0.0022845557078836,-0.0172819565783165,-0.0236309491359357,1.0834961325992858,0.0483115068928567,-0.0012448050096546,0.2623192256636386,0.0008396851439535,0.0007139674750326,0.0042326937861258,2.827863588615774,1.5328810115947722,-18.119194969977645,-1.9807847342053293,0.9582912948478344,0.1267933135801597,-42.55713084633335,-33.5800199477195,11.378801507345624,-38.41153355447545,-19.954895511505192,-1.9392620971225467,-9.117322459961713,-5.735168537671143,-0.6494452847052198,11.147871272037378,0.0023260735458734,-0.9380746594385228,-6.239495920137962,8.95669914616795,0.938683430480978,-0.0140406836837277,2.6899359140352885,-0.006742780465629,-3.618085514662167,0.1523332412256768
123904939,0.12399601936340332,-0.0030530464881022,0.0016983412016139,-0.152003143644089,0.6807089201468904,-0.2748158290554883,0.0050149205253692,0.0211459423909051,-0.0040928535167596,-0.2562147175193712,0.3439800951772891,-0.0852469902259094,-0.0250498376911127,0.1534003304147598,1.3156037088315558,0.0006231370322137,-0.3840002612435964,1.5707939808282383,-0.0151205744467723,-0.0130761106284052,-0.1343438745127589,-1.3108493256109774,7.324104242798705e-06,0.0594133415558129,1.5708032191563357,0.0107866350180379,-0.0075182496918613,-0.1138692185378138,0.2979510053526586,-3.5150070622766285,6.547034990250061,0.1757700167041777,0.0242043232053795,0.1106812501124742,0.0521090578698209,0.8909795724636183,-0.5933708164256786,-0.0391086354768901,-0.2388992861265701,-1.536885521498771,-0.064797536709603,-0.010800031003,1.4336254214512,0.0008420814003012,-0.0268100296406474,-0.0344621828888995,1.0535435379037952,0.0434519550274634,-0.0044364147749067,0.2910439461612164,-0.0003267973274931,-0.0023854870986316,0.0010953556343086,4.191459485969655,1.3717818398052943,-20.63139420323226,11.996350138680263,0.8211346371168144,0.1408650162614582,-45.839261519520605,-35.03227623596195,9.909315300431032,-39.70268208389857,-20.160690207758314,-2.150302545070404,-17.258965555947555,-5.60370883155565,-0.6231370322137888,23.45167109388683,0.0023191717614281,-0.4447551145421815,-5.595173114095521,22.37455003010656,0.8493256109775302,-0.0073241042427987,9.571409298123974,-0.0069191563354706,-3.585100677669867,0.1136519142823636
